paper_a.cube
# input: log10/density, output: linear
# kodak endura curve
# by Aaron Buchler, 2023
# https://github.com/abpy/color-neg-resources

LUT_1D_SIZE 1024

DOMAIN_MIN 0 0 0
DOMAIN_MAX 3 3 3

0.00278 0.00278 0.00278
0.00278 0.00278 0.00278
0.00278 0.00278 0.00278
0.00278 0.00278 0.00278
0.00278 0.00278 0.00278
0.00278 0.00278 0.00278
0.00278 0.00278 0.00278
0.00278 0.00278 0.00278
0.00278 0.00278 0.00278
0.00278 0.00278 0.00278
0.00278 0.00278 0.00278
0.00278 0.00278 0.00278
0.00278 0.00278 0.00278
0.00278 0.00278 0.00278
0.00278 0.00278 0.00278
0.00278 0.00278 0.00278
0.00278 0.00278 0.00278
0.00278 0.00278 0.00278
0.00278 0.00278 0.00278
0.00278 0.00278 0.00278
0.00278 0.00278 0.00278
0.00278 0.00278 0.00278
0.00278 0.00278 0.00278
0.00278 0.00278 0.00278
0.00278 0.00278 0.00278
0.00278 0.00278 0.00278
0.00278 0.00278 0.00278
0.00278 0.00278 0.00278
0.00278 0.00278 0.00278
0.00278 0.00278 0.00278
0.00278 0.00278 0.00278
0.00278 0.00278 0.00278
0.00278 0.00278 0.00278
0.00278 0.00278 0.00278
0.00278 0.00278 0.00278
0.00278 0.00278 0.00278
0.00278 0.00278 0.00278
0.00278 0.00278 0.00278
0.00278 0.00278 0.00278
0.00278 0.00278 0.00278
0.00278 0.00278 0.00278
0.00278 0.00278 0.00278
0.00278 0.00278 0.00278
0.00278 0.00278 0.00278
0.00278 0.00278 0.00278
0.00278 0.00278 0.00278
0.00278 0.00278 0.00278
0.00278 0.00278 0.00278
0.00278 0.00278 0.00278
0.00278 0.00278 0.00278
0.00278 0.00278 0.00278
0.00278 0.00278 0.00278
0.00278 0.00278 0.00278
0.00278 0.00278 0.00278
0.00278 0.00278 0.00278
0.00278 0.00278 0.00278
0.00278 0.00278 0.00278
0.00278 0.00278 0.00278
0.00278 0.00278 0.00278
0.00278 0.00278 0.00278
0.00278 0.00278 0.00278
0.00278 0.00278 0.00278
0.00278 0.00278 0.00278
0.00278 0.00278 0.00278
0.00278 0.00278 0.00278
0.00278 0.00278 0.00278
0.00278 0.00278 0.00278
0.00278 0.00278 0.00278
0.00278 0.00278 0.00278
0.00278 0.00278 0.00278
0.00278 0.00278 0.00278
0.00278 0.00278 0.00278
0.00278 0.00278 0.00278
0.00278 0.00278 0.00278
0.00278 0.00278 0.00278
0.00278 0.00278 0.00278
0.00278 0.00278 0.00278
0.00278 0.00278 0.00278
0.00278 0.00278 0.00278
0.00278 0.00278 0.00278
0.00278 0.00278 0.00278
0.00278 0.00278 0.00278
0.00278 0.00278 0.00278
0.00278 0.00278 0.00278
0.00278 0.00278 0.00278
0.00278 0.00278 0.00278
0.00278 0.00278 0.00278
0.00278 0.00278 0.00278
0.00278 0.00278 0.00278
0.00278 0.00278 0.00278
0.00278 0.00278 0.00278
0.00278 0.00278 0.00278
0.00278 0.00278 0.00278
0.00278 0.00278 0.00278
0.00278 0.00278 0.00278
0.00278 0.00278 0.00278
0.00278 0.00278 0.00278
0.00278 0.00278 0.00278
0.00278 0.00278 0.00278
0.00278 0.00278 0.00278
0.00278 0.00278 0.00278
0.00278 0.00278 0.00278
0.00278 0.00278 0.00278
0.00278 0.00278 0.00278
0.00278 0.00278 0.00278
0.00278 0.00278 0.00278
0.00278 0.00278 0.00278
0.00278 0.00278 0.00278
0.00278 0.00278 0.00278
0.00278 0.00278 0.00278
0.00278 0.00278 0.00278
0.00278 0.00278 0.00278
0.00278 0.00278 0.00278
0.00278 0.00278 0.00278
0.00278 0.00278 0.00278
0.00278 0.00278 0.00278
0.00278 0.00278 0.00278
0.00278 0.00278 0.00278
0.00278 0.00278 0.00278
0.00278 0.00278 0.00278
0.00278 0.00278 0.00278
0.00279 0.00279 0.00279
0.00279 0.00279 0.00279
0.00279 0.00279 0.00279
0.00279 0.00279 0.00279
0.00279 0.00279 0.00279
0.00279 0.00279 0.00279
0.00279 0.00279 0.00279
0.00279 0.00279 0.00279
0.00279 0.00279 0.00279
0.00279 0.00279 0.00279
0.00279 0.00279 0.00279
0.00279 0.00279 0.00279
0.00279 0.00279 0.00279
0.00279 0.00279 0.00279
0.00279 0.00279 0.00279
0.00279 0.00279 0.00279
0.00279 0.00279 0.00279
0.00279 0.00279 0.00279
0.00279 0.00279 0.00279
0.00279 0.00279 0.00279
0.00280 0.00280 0.00280
0.00280 0.00280 0.00280
0.00280 0.00280 0.00280
0.00280 0.00280 0.00280
0.00280 0.00280 0.00280
0.00280 0.00280 0.00280
0.00280 0.00280 0.00280
0.00280 0.00280 0.00280
0.00280 0.00280 0.00280
0.00280 0.00280 0.00280
0.00281 0.00281 0.00281
0.00281 0.00281 0.00281
0.00281 0.00281 0.00281
0.00281 0.00281 0.00281
0.00281 0.00281 0.00281
0.00281 0.00281 0.00281
0.00281 0.00281 0.00281
0.00282 0.00282 0.00282
0.00282 0.00282 0.00282
0.00282 0.00282 0.00282
0.00282 0.00282 0.00282
0.00282 0.00282 0.00282
0.00282 0.00282 0.00282
0.00283 0.00283 0.00283
0.00283 0.00283 0.00283
0.00283 0.00283 0.00283
0.00283 0.00283 0.00283
0.00283 0.00283 0.00283
0.00283 0.00283 0.00283
0.00284 0.00284 0.00284
0.00284 0.00284 0.00284
0.00284 0.00284 0.00284
0.00284 0.00284 0.00284
0.00284 0.00284 0.00284
0.00285 0.00285 0.00285
0.00285 0.00285 0.00285
0.00285 0.00285 0.00285
0.00285 0.00285 0.00285
0.00286 0.00286 0.00286
0.00286 0.00286 0.00286
0.00286 0.00286 0.00286
0.00286 0.00286 0.00286
0.00286 0.00286 0.00286
0.00287 0.00287 0.00287
0.00287 0.00287 0.00287
0.00287 0.00287 0.00287
0.00287 0.00287 0.00287
0.00288 0.00288 0.00288
0.00288 0.00288 0.00288
0.00288 0.00288 0.00288
0.00288 0.00288 0.00288
0.00289 0.00289 0.00289
0.00289 0.00289 0.00289
0.00289 0.00289 0.00289
0.00289 0.00289 0.00289
0.00290 0.00290 0.00290
0.00290 0.00290 0.00290
0.00290 0.00290 0.00290
0.00291 0.00291 0.00291
0.00291 0.00291 0.00291
0.00291 0.00291 0.00291
0.00291 0.00291 0.00291
0.00292 0.00292 0.00292
0.00292 0.00292 0.00292
0.00292 0.00292 0.00292
0.00292 0.00292 0.00292
0.00293 0.00293 0.00293
0.00293 0.00293 0.00293
0.00293 0.00293 0.00293
0.00294 0.00294 0.00294
0.00294 0.00294 0.00294
0.00294 0.00294 0.00294
0.00294 0.00294 0.00294
0.00295 0.00295 0.00295
0.00295 0.00295 0.00295
0.00295 0.00295 0.00295
0.00295 0.00295 0.00295
0.00296 0.00296 0.00296
0.00296 0.00296 0.00296
0.00296 0.00296 0.00296
0.00297 0.00297 0.00297
0.00297 0.00297 0.00297
0.00297 0.00297 0.00297
0.00298 0.00298 0.00298
0.00298 0.00298 0.00298
0.00298 0.00298 0.00298
0.00299 0.00299 0.00299
0.00299 0.00299 0.00299
0.00299 0.00299 0.00299
0.00300 0.00300 0.00300
0.00300 0.00300 0.00300
0.00300 0.00300 0.00300
0.00301 0.00301 0.00301
0.00301 0.00301 0.00301
0.00302 0.00302 0.00302
0.00302 0.00302 0.00302
0.00302 0.00302 0.00302
0.00303 0.00303 0.00303
0.00303 0.00303 0.00303
0.00304 0.00304 0.00304
0.00304 0.00304 0.00304
0.00305 0.00305 0.00305
0.00305 0.00305 0.00305
0.00306 0.00306 0.00306
0.00306 0.00306 0.00306
0.00307 0.00307 0.00307
0.00307 0.00307 0.00307
0.00308 0.00308 0.00308
0.00309 0.00309 0.00309
0.00309 0.00309 0.00309
0.00310 0.00310 0.00310
0.00311 0.00311 0.00311
0.00312 0.00312 0.00312
0.00312 0.00312 0.00312
0.00313 0.00313 0.00313
0.00314 0.00314 0.00314
0.00315 0.00315 0.00315
0.00316 0.00316 0.00316
0.00316 0.00316 0.00316
0.00317 0.00317 0.00317
0.00318 0.00318 0.00318
0.00319 0.00319 0.00319
0.00320 0.00320 0.00320
0.00321 0.00321 0.00321
0.00322 0.00322 0.00322
0.00323 0.00323 0.00323
0.00324 0.00324 0.00324
0.00325 0.00325 0.00325
0.00326 0.00326 0.00326
0.00327 0.00327 0.00327
0.00328 0.00328 0.00328
0.00330 0.00330 0.00330
0.00331 0.00331 0.00331
0.00332 0.00332 0.00332
0.00333 0.00333 0.00333
0.00334 0.00334 0.00334
0.00336 0.00336 0.00336
0.00337 0.00337 0.00337
0.00338 0.00338 0.00338
0.00340 0.00340 0.00340
0.00341 0.00341 0.00341
0.00343 0.00343 0.00343
0.00344 0.00344 0.00344
0.00346 0.00346 0.00346
0.00347 0.00347 0.00347
0.00349 0.00349 0.00349
0.00351 0.00351 0.00351
0.00352 0.00352 0.00352
0.00354 0.00354 0.00354
0.00356 0.00356 0.00356
0.00358 0.00358 0.00358
0.00360 0.00360 0.00360
0.00362 0.00362 0.00362
0.00365 0.00365 0.00365
0.00367 0.00367 0.00367
0.00369 0.00369 0.00369
0.00372 0.00372 0.00372
0.00374 0.00374 0.00374
0.00377 0.00377 0.00377
0.00379 0.00379 0.00379
0.00382 0.00382 0.00382
0.00385 0.00385 0.00385
0.00388 0.00388 0.00388
0.00391 0.00391 0.00391
0.00394 0.00394 0.00394
0.00398 0.00398 0.00398
0.00401 0.00401 0.00401
0.00404 0.00404 0.00404
0.00408 0.00408 0.00408
0.00411 0.00411 0.00411
0.00415 0.00415 0.00415
0.00419 0.00419 0.00419
0.00422 0.00422 0.00422
0.00426 0.00426 0.00426
0.00430 0.00430 0.00430
0.00434 0.00434 0.00434
0.00438 0.00438 0.00438
0.00442 0.00442 0.00442
0.00446 0.00446 0.00446
0.00451 0.00451 0.00451
0.00455 0.00455 0.00455
0.00460 0.00460 0.00460
0.00464 0.00464 0.00464
0.00469 0.00469 0.00469
0.00474 0.00474 0.00474
0.00479 0.00479 0.00479
0.00484 0.00484 0.00484
0.00489 0.00489 0.00489
0.00495 0.00495 0.00495
0.00500 0.00500 0.00500
0.00506 0.00506 0.00506
0.00512 0.00512 0.00512
0.00518 0.00518 0.00518
0.00524 0.00524 0.00524
0.00531 0.00531 0.00531
0.00537 0.00537 0.00537
0.00544 0.00544 0.00544
0.00551 0.00551 0.00551
0.00558 0.00558 0.00558
0.00566 0.00566 0.00566
0.00574 0.00574 0.00574
0.00582 0.00582 0.00582
0.00590 0.00590 0.00590
0.00599 0.00599 0.00599
0.00608 0.00608 0.00608
0.00617 0.00617 0.00617
0.00627 0.00627 0.00627
0.00637 0.00637 0.00637
0.00647 0.00647 0.00647
0.00658 0.00658 0.00658
0.00669 0.00669 0.00669
0.00680 0.00680 0.00680
0.00692 0.00692 0.00692
0.00705 0.00705 0.00705
0.00718 0.00718 0.00718
0.00731 0.00731 0.00731
0.00745 0.00745 0.00745
0.00759 0.00759 0.00759
0.00775 0.00775 0.00775
0.00790 0.00790 0.00790
0.00807 0.00807 0.00807
0.00824 0.00824 0.00824
0.00841 0.00841 0.00841
0.00860 0.00860 0.00860
0.00879 0.00879 0.00879
0.00899 0.00899 0.00899
0.00920 0.00920 0.00920
0.00941 0.00941 0.00941
0.00964 0.00964 0.00964
0.00987 0.00987 0.00987
0.01012 0.01012 0.01012
0.01037 0.01037 0.01037
0.01063 0.01063 0.01063
0.01090 0.01090 0.01090
0.01119 0.01119 0.01119
0.01148 0.01148 0.01148
0.01178 0.01178 0.01178
0.01210 0.01210 0.01210
0.01242 0.01242 0.01242
0.01276 0.01276 0.01276
0.01311 0.01311 0.01311
0.01347 0.01347 0.01347
0.01385 0.01385 0.01385
0.01423 0.01423 0.01423
0.01463 0.01463 0.01463
0.01505 0.01505 0.01505
0.01548 0.01548 0.01548
0.01592 0.01592 0.01592
0.01638 0.01638 0.01638
0.01685 0.01685 0.01685
0.01733 0.01733 0.01733
0.01784 0.01784 0.01784
0.01835 0.01835 0.01835
0.01889 0.01889 0.01889
0.01944 0.01944 0.01944
0.02000 0.02000 0.02000
0.02059 0.02059 0.02059
0.02119 0.02119 0.02119
0.02180 0.02180 0.02180
0.02244 0.02244 0.02244
0.02309 0.02309 0.02309
0.02376 0.02376 0.02376
0.02444 0.02444 0.02444
0.02515 0.02515 0.02515
0.02587 0.02587 0.02587
0.02661 0.02661 0.02661
0.02737 0.02737 0.02737
0.02815 0.02815 0.02815
0.02896 0.02896 0.02896
0.02978 0.02978 0.02978
0.03063 0.03063 0.03063
0.03151 0.03151 0.03151
0.03242 0.03242 0.03242
0.03335 0.03335 0.03335
0.03432 0.03432 0.03432
0.03532 0.03532 0.03532
0.03636 0.03636 0.03636
0.03743 0.03743 0.03743
0.03854 0.03854 0.03854
0.03968 0.03968 0.03968
0.04087 0.04087 0.04087
0.04209 0.04209 0.04209
0.04336 0.04336 0.04336
0.04466 0.04466 0.04466
0.04601 0.04601 0.04601
0.04740 0.04740 0.04740
0.04884 0.04884 0.04884
0.05032 0.05032 0.05032
0.05184 0.05184 0.05184
0.05342 0.05342 0.05342
0.05504 0.05504 0.05504
0.05670 0.05670 0.05670
0.05842 0.05842 0.05842
0.06018 0.06018 0.06018
0.06200 0.06200 0.06200
0.06386 0.06386 0.06386
0.06578 0.06578 0.06578
0.06775 0.06775 0.06775
0.06977 0.06977 0.06977
0.07184 0.07184 0.07184
0.07396 0.07396 0.07396
0.07613 0.07613 0.07613
0.07836 0.07836 0.07836
0.08064 0.08064 0.08064
0.08297 0.08297 0.08297
0.08536 0.08536 0.08536
0.08779 0.08779 0.08779
0.09027 0.09027 0.09027
0.09281 0.09281 0.09281
0.09539 0.09539 0.09539
0.09802 0.09802 0.09802
0.10070 0.10070 0.10070
0.10342 0.10342 0.10342
0.10618 0.10618 0.10618
0.10899 0.10899 0.10899
0.11184 0.11184 0.11184
0.11472 0.11472 0.11472
0.11765 0.11765 0.11765
0.12062 0.12062 0.12062
0.12363 0.12363 0.12363
0.12668 0.12668 0.12668
0.12979 0.12979 0.12979
0.13294 0.13294 0.13294
0.13615 0.13615 0.13615
0.13940 0.13940 0.13940
0.14271 0.14271 0.14271
0.14608 0.14608 0.14608
0.14950 0.14950 0.14950
0.15298 0.15298 0.15298
0.15651 0.15651 0.15651
0.16010 0.16010 0.16010
0.16374 0.16374 0.16374
0.16744 0.16744 0.16744
0.17120 0.17120 0.17120
0.17502 0.17502 0.17502
0.17888 0.17888 0.17888
0.18281 0.18281 0.18281
0.18679 0.18679 0.18679
0.19082 0.19082 0.19082
0.19491 0.19491 0.19491
0.19905 0.19905 0.19905
0.20325 0.20325 0.20325
0.20750 0.20750 0.20750
0.21180 0.21180 0.21180
0.21615 0.21615 0.21615
0.22055 0.22055 0.22055
0.22501 0.22501 0.22501
0.22951 0.22951 0.22951
0.23406 0.23406 0.23406
0.23867 0.23867 0.23867
0.24331 0.24331 0.24331
0.24801 0.24801 0.24801
0.25274 0.25274 0.25274
0.25753 0.25753 0.25753
0.26235 0.26235 0.26235
0.26722 0.26722 0.26722
0.27212 0.27212 0.27212
0.27707 0.27707 0.27707
0.28205 0.28205 0.28205
0.28706 0.28706 0.28706
0.29212 0.29212 0.29212
0.29720 0.29720 0.29720
0.30231 0.30231 0.30231
0.30745 0.30745 0.30745
0.31262 0.31262 0.31262
0.31782 0.31782 0.31782
0.32304 0.32304 0.32304
0.32828 0.32828 0.32828
0.33353 0.33353 0.33353
0.33879 0.33879 0.33879
0.34407 0.34407 0.34407
0.34936 0.34936 0.34936
0.35466 0.35466 0.35466
0.35995 0.35995 0.35995
0.36526 0.36526 0.36526
0.37056 0.37056 0.37056
0.37585 0.37585 0.37585
0.38113 0.38113 0.38113
0.38641 0.38641 0.38641
0.39168 0.39168 0.39168
0.39693 0.39693 0.39693
0.40217 0.40217 0.40217
0.40740 0.40740 0.40740
0.41261 0.41261 0.41261
0.41781 0.41781 0.41781
0.42299 0.42299 0.42299
0.42815 0.42815 0.42815
0.43329 0.43329 0.43329
0.43842 0.43842 0.43842
0.44353 0.44353 0.44353
0.44861 0.44861 0.44861
0.45368 0.45368 0.45368
0.45872 0.45872 0.45872
0.46375 0.46375 0.46375
0.46875 0.46875 0.46875
0.47372 0.47372 0.47372
0.47868 0.47868 0.47868
0.48361 0.48361 0.48361
0.48852 0.48852 0.48852
0.49341 0.49341 0.49341
0.49827 0.49827 0.49827
0.50311 0.50311 0.50311
0.50792 0.50792 0.50792
0.51272 0.51272 0.51272
0.51749 0.51749 0.51749
0.52223 0.52223 0.52223
0.52696 0.52696 0.52696
0.53166 0.53166 0.53166
0.53634 0.53634 0.53634
0.54100 0.54100 0.54100
0.54564 0.54564 0.54564
0.55026 0.55026 0.55026
0.55485 0.55485 0.55485
0.55943 0.55943 0.55943
0.56399 0.56399 0.56399
0.56854 0.56854 0.56854
0.57306 0.57306 0.57306
0.57758 0.57758 0.57758
0.58207 0.58207 0.58207
0.58655 0.58655 0.58655
0.59100 0.59100 0.59100
0.59541 0.59541 0.59541
0.59978 0.59978 0.59978
0.60411 0.60411 0.60411
0.60837 0.60837 0.60837
0.61257 0.61257 0.61257
0.61671 0.61671 0.61671
0.62078 0.62078 0.62078
0.62477 0.62477 0.62477
0.62867 0.62867 0.62867
0.63250 0.63250 0.63250
0.63624 0.63624 0.63624
0.63991 0.63991 0.63991
0.64350 0.64350 0.64350
0.64701 0.64701 0.64701
0.65045 0.65045 0.65045
0.65382 0.65382 0.65382
0.65711 0.65711 0.65711
0.66033 0.66033 0.66033
0.66348 0.66348 0.66348
0.66656 0.66656 0.66656
0.66957 0.66957 0.66957
0.67252 0.67252 0.67252
0.67540 0.67540 0.67540
0.67822 0.67822 0.67822
0.68099 0.68099 0.68099
0.68369 0.68369 0.68369
0.68634 0.68634 0.68634
0.68893 0.68893 0.68893
0.69147 0.69147 0.69147
0.69396 0.69396 0.69396
0.69640 0.69640 0.69640
0.69880 0.69880 0.69880
0.70115 0.70115 0.70115
0.70346 0.70346 0.70346
0.70574 0.70574 0.70574
0.70797 0.70797 0.70797
0.71018 0.71018 0.71018
0.71234 0.71234 0.71234
0.71449 0.71449 0.71449
0.71660 0.71660 0.71660
0.71869 0.71869 0.71869
0.72076 0.72076 0.72076
0.72281 0.72281 0.72281
0.72484 0.72484 0.72484
0.72686 0.72686 0.72686
0.72887 0.72887 0.72887
0.73087 0.73087 0.73087
0.73286 0.73286 0.73286
0.73485 0.73485 0.73485
0.73684 0.73684 0.73684
0.73882 0.73882 0.73882
0.74077 0.74077 0.74077
0.74271 0.74271 0.74271
0.74462 0.74462 0.74462
0.74649 0.74649 0.74649
0.74833 0.74833 0.74833
0.75012 0.75012 0.75012
0.75186 0.75186 0.75186
0.75355 0.75355 0.75355
0.75518 0.75518 0.75518
0.75676 0.75676 0.75676
0.75828 0.75828 0.75828
0.75974 0.75974 0.75974
0.76115 0.76115 0.76115
0.76251 0.76251 0.76251
0.76382 0.76382 0.76382
0.76507 0.76507 0.76507
0.76628 0.76628 0.76628
0.76744 0.76744 0.76744
0.76855 0.76855 0.76855
0.76961 0.76961 0.76961
0.77063 0.77063 0.77063
0.77161 0.77161 0.77161
0.77254 0.77254 0.77254
0.77344 0.77344 0.77344
0.77429 0.77429 0.77429
0.77511 0.77511 0.77511
0.77590 0.77590 0.77590
0.77665 0.77665 0.77665
0.77737 0.77737 0.77737
0.77807 0.77807 0.77807
0.77873 0.77873 0.77873
0.77937 0.77937 0.77937
0.77998 0.77998 0.77998
0.78057 0.78057 0.78057
0.78114 0.78114 0.78114
0.78169 0.78169 0.78169
0.78223 0.78223 0.78223
0.78275 0.78275 0.78275
0.78325 0.78325 0.78325
0.78374 0.78374 0.78374
0.78423 0.78423 0.78423
0.78470 0.78470 0.78470
0.78517 0.78517 0.78517
0.78563 0.78563 0.78563
0.78609 0.78609 0.78609
0.78654 0.78654 0.78654
0.78700 0.78700 0.78700
0.78745 0.78745 0.78745
0.78790 0.78790 0.78790
0.78840 0.78840 0.78840
0.78896 0.78896 0.78896
0.78949 0.78949 0.78949
0.79001 0.79001 0.79001
0.79050 0.79050 0.79050
0.79097 0.79097 0.79097
0.79143 0.79143 0.79143
0.79187 0.79187 0.79187
0.79237 0.79237 0.79237
0.79283 0.79283 0.79283
0.79327 0.79327 0.79327
0.79368 0.79368 0.79368
0.79407 0.79407 0.79407
0.79444 0.79444 0.79444
0.79479 0.79479 0.79479
0.79512 0.79512 0.79512
0.79544 0.79544 0.79544
0.79574 0.79574 0.79574
0.79603 0.79603 0.79603
0.79631 0.79631 0.79631
0.79658 0.79658 0.79658
0.79683 0.79683 0.79683
0.79708 0.79708 0.79708
0.79732 0.79732 0.79732
0.79755 0.79755 0.79755
0.79777 0.79777 0.79777
0.79798 0.79798 0.79798
0.79819 0.79819 0.79819
0.79839 0.79839 0.79839
0.79858 0.79858 0.79858
0.79877 0.79877 0.79877
0.79895 0.79895 0.79895
0.79912 0.79912 0.79912
0.79929 0.79929 0.79929
0.79945 0.79945 0.79945
0.79961 0.79961 0.79961
0.79977 0.79977 0.79977
0.79991 0.79991 0.79991
0.80006 0.80006 0.80006
0.80020 0.80020 0.80020
0.80033 0.80033 0.80033
0.80046 0.80046 0.80046
0.80059 0.80059 0.80059
0.80071 0.80071 0.80071
0.80083 0.80083 0.80083
0.80095 0.80095 0.80095
0.80106 0.80106 0.80106
0.80117 0.80117 0.80117
0.80128 0.80128 0.80128
0.80138 0.80138 0.80138
0.80148 0.80148 0.80148
0.80158 0.80158 0.80158
0.80167 0.80167 0.80167
0.80176 0.80176 0.80176
0.80185 0.80185 0.80185
0.80193 0.80193 0.80193
0.80202 0.80202 0.80202
0.80210 0.80210 0.80210
0.80218 0.80218 0.80218
0.80225 0.80225 0.80225
0.80232 0.80232 0.80232
0.80239 0.80239 0.80239
0.80246 0.80246 0.80246
0.80253 0.80253 0.80253
0.80259 0.80259 0.80259
0.80265 0.80265 0.80265
0.80271 0.80271 0.80271
0.80277 0.80277 0.80277
0.80283 0.80283 0.80283
0.80288 0.80288 0.80288
0.80293 0.80293 0.80293
0.80298 0.80298 0.80298
0.80303 0.80303 0.80303
0.80307 0.80307 0.80307
0.80312 0.80312 0.80312
0.80316 0.80316 0.80316
0.80320 0.80320 0.80320
0.80324 0.80324 0.80324
0.80328 0.80328 0.80328
0.80331 0.80331 0.80331
0.80335 0.80335 0.80335
0.80338 0.80338 0.80338
0.80341 0.80341 0.80341
0.80344 0.80344 0.80344
0.80347 0.80347 0.80347
0.80350 0.80350 0.80350
0.80352 0.80352 0.80352
0.80355 0.80355 0.80355
0.80357 0.80357 0.80357
0.80359 0.80359 0.80359
0.80361 0.80361 0.80361
0.80363 0.80363 0.80363
0.80365 0.80365 0.80365
0.80366 0.80366 0.80366
0.80368 0.80368 0.80368
0.80369 0.80369 0.80369
0.80370 0.80370 0.80370
0.80371 0.80371 0.80371
0.80372 0.80372 0.80372
0.80373 0.80373 0.80373
0.80374 0.80374 0.80374
0.80374 0.80374 0.80374
0.80375 0.80375 0.80375
0.80375 0.80375 0.80375
0.80375 0.80375 0.80375
0.80375 0.80375 0.80375
0.80375 0.80375 0.80375
0.80375 0.80375 0.80375
0.80375 0.80375 0.80375
0.80375 0.80375 0.80375
0.80375 0.80375 0.80375
0.80375 0.80375 0.80375
0.80375 0.80375 0.80375
0.80375 0.80375 0.80375
0.80375 0.80375 0.80375
0.80375 0.80375 0.80375
0.80375 0.80375 0.80375
0.80375 0.80375 0.80375
0.80375 0.80375 0.80375
0.80375 0.80375 0.80375
0.80375 0.80375 0.80375
0.80375 0.80375 0.80375
0.80375 0.80375 0.80375
0.80375 0.80375 0.80375
0.80375 0.80375 0.80375
0.80375 0.80375 0.80375
0.80375 0.80375 0.80375
0.80375 0.80375 0.80375
0.80375 0.80375 0.80375
0.80375 0.80375 0.80375
0.80375 0.80375 0.80375
0.80375 0.80375 0.80375
0.80375 0.80375 0.80375
0.80375 0.80375 0.80375
0.80375 0.80375 0.80375
0.80375 0.80375 0.80375
0.80375 0.80375 0.80375
0.80375 0.80375 0.80375
0.80375 0.80375 0.80375
0.80375 0.80375 0.80375
0.80375 0.80375 0.80375
0.80375 0.80375 0.80375
0.80375 0.80375 0.80375
0.80375 0.80375 0.80375
0.80375 0.80375 0.80375
0.80375 0.80375 0.80375
0.80375 0.80375 0.80375
0.80375 0.80375 0.80375
0.80375 0.80375 0.80375
0.80375 0.80375 0.80375
0.80375 0.80375 0.80375
0.80375 0.80375 0.80375
0.80375 0.80375 0.80375
0.80375 0.80375 0.80375
0.80375 0.80375 0.80375
0.80375 0.80375 0.80375
0.80375 0.80375 0.80375
0.80375 0.80375 0.80375
0.80375 0.80375 0.80375
0.80375 0.80375 0.80375
0.80375 0.80375 0.80375
0.80375 0.80375 0.80375
0.80375 0.80375 0.80375
0.80375 0.80375 0.80375
0.80375 0.80375 0.80375
0.80375 0.80375 0.80375
0.80375 0.80375 0.80375
0.80375 0.80375 0.80375
0.80375 0.80375 0.80375
0.80375 0.80375 0.80375
0.80375 0.80375 0.80375
0.80375 0.80375 0.80375
0.80375 0.80375 0.80375
0.80375 0.80375 0.80375
0.80375 0.80375 0.80375
0.80375 0.80375 0.80375
0.80375 0.80375 0.80375
0.80375 0.80375 0.80375
0.80375 0.80375 0.80375
0.80375 0.80375 0.80375
0.80375 0.80375 0.80375
0.80375 0.80375 0.80375
0.80375 0.80375 0.80375
0.80375 0.80375 0.80375
0.80375 0.80375 0.80375
0.80375 0.80375 0.80375
0.80375 0.80375 0.80375
0.80375 0.80375 0.80375
0.80375 0.80375 0.80375
0.80375 0.80375 0.80375
0.80375 0.80375 0.80375
0.80375 0.80375 0.80375
0.80375 0.80375 0.80375
0.80375 0.80375 0.80375
0.80375 0.80375 0.80375
0.80375 0.80375 0.80375
0.80375 0.80375 0.80375
0.80375 0.80375 0.80375
0.80375 0.80375 0.80375
0.80375 0.80375 0.80375
0.80375 0.80375 0.80375
0.80375 0.80375 0.80375
0.80375 0.80375 0.80375
0.80375 0.80375 0.80375
0.80375 0.80375 0.80375
0.80375 0.80375 0.80375
0.80375 0.80375 0.80375
0.80375 0.80375 0.80375
0.80375 0.80375 0.80375
0.80375 0.80375 0.80375
0.80375 0.80375 0.80375
0.80375 0.80375 0.80375
0.80375 0.80375 0.80375
0.80375 0.80375 0.80375
0.80375 0.80375 0.80375
0.80375 0.80375 0.80375
0.80375 0.80375 0.80375
0.80375 0.80375 0.80375
0.80375 0.80375 0.80375
0.80375 0.80375 0.80375
0.80375 0.80375 0.80375
0.80375 0.80375 0.80375
0.80375 0.80375 0.80375
0.80375 0.80375 0.80375
0.80375 0.80375 0.80375
0.80375 0.80375 0.80375
0.80375 0.80375 0.80375
0.80375 0.80375 0.80375
0.80375 0.80375 0.80375
0.80375 0.80375 0.80375
0.80375 0.80375 0.80375
0.80375 0.80375 0.80375
0.80375 0.80375 0.80375
0.80375 0.80375 0.80375
0.80375 0.80375 0.80375
0.80375 0.80375 0.80375
0.80375 0.80375 0.80375
0.80375 0.80375 0.80375
0.80375 0.80375 0.80375
0.80375 0.80375 0.80375
0.80375 0.80375 0.80375
0.80375 0.80375 0.80375
0.80375 0.80375 0.80375
0.80375 0.80375 0.80375
0.80375 0.80375 0.80375
0.80375 0.80375 0.80375
0.80375 0.80375 0.80375
0.80375 0.80375 0.80375
0.80375 0.80375 0.80375
0.80375 0.80375 0.80375
0.80375 0.80375 0.80375
0.80375 0.80375 0.80375
0.80375 0.80375 0.80375
0.80375 0.80375 0.80375
0.80375 0.80375 0.80375
0.80375 0.80375 0.80375
0.80375 0.80375 0.80375
0.80375 0.80375 0.80375
0.80375 0.80375 0.80375
0.80375 0.80375 0.80375
0.80375 0.80375 0.80375
0.80375 0.80375 0.80375
0.80375 0.80375 0.80375
0.80375 0.80375 0.80375
0.80375 0.80375 0.80375
0.80375 0.80375 0.80375
0.80375 0.80375 0.80375
0.80375 0.80375 0.80375
0.80375 0.80375 0.80375
0.80375 0.80375 0.80375
0.80375 0.80375 0.80375
0.80375 0.80375 0.80375
0.80375 0.80375 0.80375
0.80375 0.80375 0.80375
0.80375 0.80375 0.80375
0.80375 0.80375 0.80375
0.80375 0.80375 0.80375
0.80375 0.80375 0.80375
0.80375 0.80375 0.80375
0.80375 0.80375 0.80375
0.80375 0.80375 0.80375
0.80375 0.80375 0.80375
0.80375 0.80375 0.80375
0.80375 0.80375 0.80375
0.80375 0.80375 0.80375
0.80375 0.80375 0.80375
0.80375 0.80375 0.80375
0.80375 0.80375 0.80375
0.80375 0.80375 0.80375
0.80375 0.80375 0.80375
0.80375 0.80375 0.80375
0.80375 0.80375 0.80375
0.80375 0.80375 0.80375
0.80375 0.80375 0.80375
0.80375 0.80375 0.80375
0.80375 0.80375 0.80375
0.80375 0.80375 0.80375
0.80375 0.80375 0.80375
0.80375 0.80375 0.80375
0.80375 0.80375 0.80375
0.80375 0.80375 0.80375
0.80375 0.80375 0.80375
0.80375 0.80375 0.80375
0.80375 0.80375 0.80375
0.80375 0.80375 0.80375
0.80375 0.80375 0.80375
0.80375 0.80375 0.80375
0.80375 0.80375 0.80375
0.80375 0.80375 0.80375
0.80375 0.80375 0.80375
0.80375 0.80375 0.80375
0.80375 0.80375 0.80375
0.80375 0.80375 0.80375
0.80375 0.80375 0.80375
0.80375 0.80375 0.80375
0.80375 0.80375 0.80375
0.80375 0.80375 0.80375
0.80375 0.80375 0.80375
0.80375 0.80375 0.80375
0.80375 0.80375 0.80375
0.80375 0.80375 0.80375
0.80375 0.80375 0.80375
0.80375 0.80375 0.80375
0.80375 0.80375 0.80375
0.80375 0.80375 0.80375
0.80375 0.80375 0.80375
0.80375 0.80375 0.80375
0.80375 0.80375 0.80375
0.80375 0.80375 0.80375
0.80375 0.80375 0.80375
