paper_invert.cube
# input: linear(negative), output: linear
# kodak endura curve
# by Aaron Buchler, 2023
# https://github.com/abpy/color-neg-resources

LUT_1D_SIZE 1024

DOMAIN_MIN 0 0 0
DOMAIN_MAX 1 1 1

0.80375 0.80375 0.80375
0.80375 0.80375 0.80375
0.80375 0.80375 0.80375
0.80375 0.80375 0.80375
0.80375 0.80375 0.80375
0.80375 0.80375 0.80375
0.80373 0.80373 0.80373
0.80321 0.80321 0.80321
0.80205 0.80205 0.80205
0.80019 0.80019 0.80019
0.79740 0.79740 0.79740
0.79294 0.79294 0.79294
0.78671 0.78671 0.78671
0.78087 0.78087 0.78087
0.77303 0.77303 0.77303
0.76159 0.76159 0.76159
0.74605 0.74605 0.74605
0.72844 0.72844 0.72844
0.71087 0.71087 0.71087
0.69225 0.69225 0.69225
0.67169 0.67169 0.67169
0.64871 0.64871 0.64871
0.62319 0.62319 0.62319
0.59549 0.59549 0.59549
0.56724 0.56724 0.56724
0.53947 0.53947 0.53947
0.51206 0.51206 0.51206
0.48495 0.48495 0.48495
0.45815 0.45815 0.45815
0.43170 0.43170 0.43170
0.40567 0.40567 0.40567
0.38015 0.38015 0.38015
0.35525 0.35525 0.35525
0.33118 0.33118 0.33118
0.30814 0.30814 0.30814
0.28626 0.28626 0.28626
0.26560 0.26560 0.26560
0.24617 0.24617 0.24617
0.22798 0.22798 0.22798
0.21100 0.21100 0.21100
0.19518 0.19518 0.19518
0.18048 0.18048 0.18048
0.16684 0.16684 0.16684
0.15422 0.15422 0.15422
0.14255 0.14255 0.14255
0.13174 0.13174 0.13174
0.12172 0.12172 0.12172
0.11236 0.11236 0.11236
0.10360 0.10360 0.10360
0.09542 0.09542 0.09542
0.08783 0.08783 0.08783
0.08084 0.08084 0.08084
0.07441 0.07441 0.07441
0.06853 0.06853 0.06853
0.06315 0.06315 0.06315
0.05825 0.05825 0.05825
0.05379 0.05379 0.05379
0.04974 0.04974 0.04974
0.04606 0.04606 0.04606
0.04273 0.04273 0.04273
0.03970 0.03970 0.03970
0.03696 0.03696 0.03696
0.03448 0.03448 0.03448
0.03223 0.03223 0.03223
0.03017 0.03017 0.03017
0.02828 0.02828 0.02828
0.02654 0.02654 0.02654
0.02491 0.02491 0.02491
0.02341 0.02341 0.02341
0.02201 0.02201 0.02201
0.02070 0.02070 0.02070
0.01949 0.01949 0.01949
0.01836 0.01836 0.01836
0.01732 0.01732 0.01732
0.01636 0.01636 0.01636
0.01546 0.01546 0.01546
0.01464 0.01464 0.01464
0.01388 0.01388 0.01388
0.01317 0.01317 0.01317
0.01252 0.01252 0.01252
0.01191 0.01191 0.01191
0.01135 0.01135 0.01135
0.01084 0.01084 0.01084
0.01036 0.01036 0.01036
0.00992 0.00992 0.00992
0.00951 0.00951 0.00951
0.00914 0.00914 0.00914
0.00879 0.00879 0.00879
0.00847 0.00847 0.00847
0.00817 0.00817 0.00817
0.00790 0.00790 0.00790
0.00765 0.00765 0.00765
0.00741 0.00741 0.00741
0.00719 0.00719 0.00719
0.00699 0.00699 0.00699
0.00680 0.00680 0.00680
0.00662 0.00662 0.00662
0.00646 0.00646 0.00646
0.00630 0.00630 0.00630
0.00616 0.00616 0.00616
0.00602 0.00602 0.00602
0.00589 0.00589 0.00589
0.00577 0.00577 0.00577
0.00566 0.00566 0.00566
0.00555 0.00555 0.00555
0.00545 0.00545 0.00545
0.00536 0.00536 0.00536
0.00526 0.00526 0.00526
0.00518 0.00518 0.00518
0.00510 0.00510 0.00510
0.00502 0.00502 0.00502
0.00494 0.00494 0.00494
0.00487 0.00487 0.00487
0.00480 0.00480 0.00480
0.00474 0.00474 0.00474
0.00467 0.00467 0.00467
0.00461 0.00461 0.00461
0.00456 0.00456 0.00456
0.00450 0.00450 0.00450
0.00445 0.00445 0.00445
0.00440 0.00440 0.00440
0.00435 0.00435 0.00435
0.00430 0.00430 0.00430
0.00425 0.00425 0.00425
0.00420 0.00420 0.00420
0.00416 0.00416 0.00416
0.00412 0.00412 0.00412
0.00408 0.00408 0.00408
0.00404 0.00404 0.00404
0.00400 0.00400 0.00400
0.00396 0.00396 0.00396
0.00392 0.00392 0.00392
0.00389 0.00389 0.00389
0.00385 0.00385 0.00385
0.00382 0.00382 0.00382
0.00379 0.00379 0.00379
0.00376 0.00376 0.00376
0.00373 0.00373 0.00373
0.00371 0.00371 0.00371
0.00368 0.00368 0.00368
0.00366 0.00366 0.00366
0.00363 0.00363 0.00363
0.00361 0.00361 0.00361
0.00359 0.00359 0.00359
0.00357 0.00357 0.00357
0.00355 0.00355 0.00355
0.00353 0.00353 0.00353
0.00351 0.00351 0.00351
0.00349 0.00349 0.00349
0.00348 0.00348 0.00348
0.00346 0.00346 0.00346
0.00345 0.00345 0.00345
0.00343 0.00343 0.00343
0.00342 0.00342 0.00342
0.00340 0.00340 0.00340
0.00339 0.00339 0.00339
0.00338 0.00338 0.00338
0.00336 0.00336 0.00336
0.00335 0.00335 0.00335
0.00334 0.00334 0.00334
0.00333 0.00333 0.00333
0.00332 0.00332 0.00332
0.00331 0.00331 0.00331
0.00330 0.00330 0.00330
0.00329 0.00329 0.00329
0.00328 0.00328 0.00328
0.00327 0.00327 0.00327
0.00326 0.00326 0.00326
0.00325 0.00325 0.00325
0.00324 0.00324 0.00324
0.00323 0.00323 0.00323
0.00322 0.00322 0.00322
0.00321 0.00321 0.00321
0.00320 0.00320 0.00320
0.00319 0.00319 0.00319
0.00319 0.00319 0.00319
0.00318 0.00318 0.00318
0.00317 0.00317 0.00317
0.00316 0.00316 0.00316
0.00316 0.00316 0.00316
0.00315 0.00315 0.00315
0.00314 0.00314 0.00314
0.00314 0.00314 0.00314
0.00313 0.00313 0.00313
0.00312 0.00312 0.00312
0.00312 0.00312 0.00312
0.00311 0.00311 0.00311
0.00311 0.00311 0.00311
0.00310 0.00310 0.00310
0.00309 0.00309 0.00309
0.00309 0.00309 0.00309
0.00308 0.00308 0.00308
0.00308 0.00308 0.00308
0.00307 0.00307 0.00307
0.00307 0.00307 0.00307
0.00307 0.00307 0.00307
0.00306 0.00306 0.00306
0.00306 0.00306 0.00306
0.00305 0.00305 0.00305
0.00305 0.00305 0.00305
0.00305 0.00305 0.00305
0.00304 0.00304 0.00304
0.00304 0.00304 0.00304
0.00303 0.00303 0.00303
0.00303 0.00303 0.00303
0.00303 0.00303 0.00303
0.00303 0.00303 0.00303
0.00302 0.00302 0.00302
0.00302 0.00302 0.00302
0.00302 0.00302 0.00302
0.00301 0.00301 0.00301
0.00301 0.00301 0.00301
0.00301 0.00301 0.00301
0.00300 0.00300 0.00300
0.00300 0.00300 0.00300
0.00300 0.00300 0.00300
0.00300 0.00300 0.00300
0.00299 0.00299 0.00299
0.00299 0.00299 0.00299
0.00299 0.00299 0.00299
0.00299 0.00299 0.00299
0.00299 0.00299 0.00299
0.00298 0.00298 0.00298
0.00298 0.00298 0.00298
0.00298 0.00298 0.00298
0.00298 0.00298 0.00298
0.00298 0.00298 0.00298
0.00297 0.00297 0.00297
0.00297 0.00297 0.00297
0.00297 0.00297 0.00297
0.00297 0.00297 0.00297
0.00297 0.00297 0.00297
0.00296 0.00296 0.00296
0.00296 0.00296 0.00296
0.00296 0.00296 0.00296
0.00296 0.00296 0.00296
0.00296 0.00296 0.00296
0.00295 0.00295 0.00295
0.00295 0.00295 0.00295
0.00295 0.00295 0.00295
0.00295 0.00295 0.00295
0.00295 0.00295 0.00295
0.00295 0.00295 0.00295
0.00294 0.00294 0.00294
0.00294 0.00294 0.00294
0.00294 0.00294 0.00294
0.00294 0.00294 0.00294
0.00294 0.00294 0.00294
0.00293 0.00293 0.00293
0.00293 0.00293 0.00293
0.00293 0.00293 0.00293
0.00293 0.00293 0.00293
0.00293 0.00293 0.00293
0.00293 0.00293 0.00293
0.00293 0.00293 0.00293
0.00292 0.00292 0.00292
0.00292 0.00292 0.00292
0.00292 0.00292 0.00292
0.00292 0.00292 0.00292
0.00292 0.00292 0.00292
0.00292 0.00292 0.00292
0.00291 0.00291 0.00291
0.00291 0.00291 0.00291
0.00291 0.00291 0.00291
0.00291 0.00291 0.00291
0.00291 0.00291 0.00291
0.00291 0.00291 0.00291
0.00290 0.00290 0.00290
0.00290 0.00290 0.00290
0.00290 0.00290 0.00290
0.00290 0.00290 0.00290
0.00290 0.00290 0.00290
0.00290 0.00290 0.00290
0.00290 0.00290 0.00290
0.00289 0.00289 0.00289
0.00289 0.00289 0.00289
0.00289 0.00289 0.00289
0.00289 0.00289 0.00289
0.00289 0.00289 0.00289
0.00289 0.00289 0.00289
0.00289 0.00289 0.00289
0.00289 0.00289 0.00289
0.00288 0.00288 0.00288
0.00288 0.00288 0.00288
0.00288 0.00288 0.00288
0.00288 0.00288 0.00288
0.00288 0.00288 0.00288
0.00288 0.00288 0.00288
0.00288 0.00288 0.00288
0.00287 0.00287 0.00287
0.00287 0.00287 0.00287
0.00287 0.00287 0.00287
0.00287 0.00287 0.00287
0.00287 0.00287 0.00287
0.00287 0.00287 0.00287
0.00287 0.00287 0.00287
0.00287 0.00287 0.00287
0.00286 0.00286 0.00286
0.00286 0.00286 0.00286
0.00286 0.00286 0.00286
0.00286 0.00286 0.00286
0.00286 0.00286 0.00286
0.00286 0.00286 0.00286
0.00286 0.00286 0.00286
0.00286 0.00286 0.00286
0.00286 0.00286 0.00286
0.00285 0.00285 0.00285
0.00285 0.00285 0.00285
0.00285 0.00285 0.00285
0.00285 0.00285 0.00285
0.00285 0.00285 0.00285
0.00285 0.00285 0.00285
0.00285 0.00285 0.00285
0.00285 0.00285 0.00285
0.00285 0.00285 0.00285
0.00285 0.00285 0.00285
0.00284 0.00284 0.00284
0.00284 0.00284 0.00284
0.00284 0.00284 0.00284
0.00284 0.00284 0.00284
0.00284 0.00284 0.00284
0.00284 0.00284 0.00284
0.00284 0.00284 0.00284
0.00284 0.00284 0.00284
0.00284 0.00284 0.00284
0.00284 0.00284 0.00284
0.00284 0.00284 0.00284
0.00283 0.00283 0.00283
0.00283 0.00283 0.00283
0.00283 0.00283 0.00283
0.00283 0.00283 0.00283
0.00283 0.00283 0.00283
0.00283 0.00283 0.00283
0.00283 0.00283 0.00283
0.00283 0.00283 0.00283
0.00283 0.00283 0.00283
0.00283 0.00283 0.00283
0.00283 0.00283 0.00283
0.00283 0.00283 0.00283
0.00283 0.00283 0.00283
0.00282 0.00282 0.00282
0.00282 0.00282 0.00282
0.00282 0.00282 0.00282
0.00282 0.00282 0.00282
0.00282 0.00282 0.00282
0.00282 0.00282 0.00282
0.00282 0.00282 0.00282
0.00282 0.00282 0.00282
0.00282 0.00282 0.00282
0.00282 0.00282 0.00282
0.00282 0.00282 0.00282
0.00282 0.00282 0.00282
0.00282 0.00282 0.00282
0.00282 0.00282 0.00282
0.00281 0.00281 0.00281
0.00281 0.00281 0.00281
0.00281 0.00281 0.00281
0.00281 0.00281 0.00281
0.00281 0.00281 0.00281
0.00281 0.00281 0.00281
0.00281 0.00281 0.00281
0.00281 0.00281 0.00281
0.00281 0.00281 0.00281
0.00281 0.00281 0.00281
0.00281 0.00281 0.00281
0.00281 0.00281 0.00281
0.00281 0.00281 0.00281
0.00281 0.00281 0.00281
0.00281 0.00281 0.00281
0.00281 0.00281 0.00281
0.00280 0.00280 0.00280
0.00280 0.00280 0.00280
0.00280 0.00280 0.00280
0.00280 0.00280 0.00280
0.00280 0.00280 0.00280
0.00280 0.00280 0.00280
0.00280 0.00280 0.00280
0.00280 0.00280 0.00280
0.00280 0.00280 0.00280
0.00280 0.00280 0.00280
0.00280 0.00280 0.00280
0.00280 0.00280 0.00280
0.00280 0.00280 0.00280
0.00280 0.00280 0.00280
0.00280 0.00280 0.00280
0.00280 0.00280 0.00280
0.00280 0.00280 0.00280
0.00280 0.00280 0.00280
0.00280 0.00280 0.00280
0.00280 0.00280 0.00280
0.00280 0.00280 0.00280
0.00280 0.00280 0.00280
0.00280 0.00280 0.00280
0.00280 0.00280 0.00280
0.00280 0.00280 0.00280
0.00280 0.00280 0.00280
0.00279 0.00279 0.00279
0.00279 0.00279 0.00279
0.00279 0.00279 0.00279
0.00279 0.00279 0.00279
0.00279 0.00279 0.00279
0.00279 0.00279 0.00279
0.00279 0.00279 0.00279
0.00279 0.00279 0.00279
0.00279 0.00279 0.00279
0.00279 0.00279 0.00279
0.00279 0.00279 0.00279
0.00279 0.00279 0.00279
0.00279 0.00279 0.00279
0.00279 0.00279 0.00279
0.00279 0.00279 0.00279
0.00279 0.00279 0.00279
0.00279 0.00279 0.00279
0.00279 0.00279 0.00279
0.00279 0.00279 0.00279
0.00279 0.00279 0.00279
0.00279 0.00279 0.00279
0.00279 0.00279 0.00279
0.00279 0.00279 0.00279
0.00279 0.00279 0.00279
0.00279 0.00279 0.00279
0.00279 0.00279 0.00279
0.00279 0.00279 0.00279
0.00279 0.00279 0.00279
0.00279 0.00279 0.00279
0.00279 0.00279 0.00279
0.00279 0.00279 0.00279
0.00279 0.00279 0.00279
0.00279 0.00279 0.00279
0.00279 0.00279 0.00279
0.00279 0.00279 0.00279
0.00279 0.00279 0.00279
0.00279 0.00279 0.00279
0.00279 0.00279 0.00279
0.00279 0.00279 0.00279
0.00279 0.00279 0.00279
0.00279 0.00279 0.00279
0.00279 0.00279 0.00279
0.00279 0.00279 0.00279
0.00279 0.00279 0.00279
0.00279 0.00279 0.00279
0.00279 0.00279 0.00279
0.00279 0.00279 0.00279
0.00279 0.00279 0.00279
0.00279 0.00279 0.00279
0.00279 0.00279 0.00279
0.00279 0.00279 0.00279
0.00279 0.00279 0.00279
0.00279 0.00279 0.00279
0.00279 0.00279 0.00279
0.00279 0.00279 0.00279
0.00279 0.00279 0.00279
0.00279 0.00279 0.00279
0.00278 0.00278 0.00278
0.00278 0.00278 0.00278
0.00278 0.00278 0.00278
0.00278 0.00278 0.00278
0.00278 0.00278 0.00278
0.00278 0.00278 0.00278
0.00278 0.00278 0.00278
0.00278 0.00278 0.00278
0.00278 0.00278 0.00278
0.00278 0.00278 0.00278
0.00278 0.00278 0.00278
0.00278 0.00278 0.00278
0.00278 0.00278 0.00278
0.00278 0.00278 0.00278
0.00278 0.00278 0.00278
0.00278 0.00278 0.00278
0.00278 0.00278 0.00278
0.00278 0.00278 0.00278
0.00278 0.00278 0.00278
0.00278 0.00278 0.00278
0.00278 0.00278 0.00278
0.00278 0.00278 0.00278
0.00278 0.00278 0.00278
0.00278 0.00278 0.00278
0.00278 0.00278 0.00278
0.00278 0.00278 0.00278
0.00278 0.00278 0.00278
0.00278 0.00278 0.00278
0.00278 0.00278 0.00278
0.00278 0.00278 0.00278
0.00278 0.00278 0.00278
0.00278 0.00278 0.00278
0.00278 0.00278 0.00278
0.00278 0.00278 0.00278
0.00278 0.00278 0.00278
0.00278 0.00278 0.00278
0.00278 0.00278 0.00278
0.00278 0.00278 0.00278
0.00278 0.00278 0.00278
0.00278 0.00278 0.00278
0.00278 0.00278 0.00278
0.00278 0.00278 0.00278
0.00278 0.00278 0.00278
0.00278 0.00278 0.00278
0.00278 0.00278 0.00278
0.00278 0.00278 0.00278
0.00278 0.00278 0.00278
0.00278 0.00278 0.00278
0.00278 0.00278 0.00278
0.00278 0.00278 0.00278
0.00278 0.00278 0.00278
0.00278 0.00278 0.00278
0.00278 0.00278 0.00278
0.00278 0.00278 0.00278
0.00278 0.00278 0.00278
0.00278 0.00278 0.00278
0.00278 0.00278 0.00278
0.00278 0.00278 0.00278
0.00278 0.00278 0.00278
0.00278 0.00278 0.00278
0.00278 0.00278 0.00278
0.00278 0.00278 0.00278
0.00278 0.00278 0.00278
0.00278 0.00278 0.00278
0.00278 0.00278 0.00278
0.00278 0.00278 0.00278
0.00278 0.00278 0.00278
0.00278 0.00278 0.00278
0.00278 0.00278 0.00278
0.00278 0.00278 0.00278
0.00278 0.00278 0.00278
0.00278 0.00278 0.00278
0.00278 0.00278 0.00278
0.00278 0.00278 0.00278
0.00278 0.00278 0.00278
0.00278 0.00278 0.00278
0.00278 0.00278 0.00278
0.00278 0.00278 0.00278
0.00278 0.00278 0.00278
0.00278 0.00278 0.00278
0.00278 0.00278 0.00278
0.00278 0.00278 0.00278
0.00278 0.00278 0.00278
0.00278 0.00278 0.00278
0.00278 0.00278 0.00278
0.00278 0.00278 0.00278
0.00278 0.00278 0.00278
0.00278 0.00278 0.00278
0.00278 0.00278 0.00278
0.00278 0.00278 0.00278
0.00278 0.00278 0.00278
0.00278 0.00278 0.00278
0.00278 0.00278 0.00278
0.00278 0.00278 0.00278
0.00278 0.00278 0.00278
0.00278 0.00278 0.00278
0.00278 0.00278 0.00278
0.00278 0.00278 0.00278
0.00278 0.00278 0.00278
0.00278 0.00278 0.00278
0.00278 0.00278 0.00278
0.00278 0.00278 0.00278
0.00278 0.00278 0.00278
0.00278 0.00278 0.00278
0.00278 0.00278 0.00278
0.00278 0.00278 0.00278
0.00278 0.00278 0.00278
0.00278 0.00278 0.00278
0.00278 0.00278 0.00278
0.00278 0.00278 0.00278
0.00278 0.00278 0.00278
0.00278 0.00278 0.00278
0.00278 0.00278 0.00278
0.00278 0.00278 0.00278
0.00278 0.00278 0.00278
0.00278 0.00278 0.00278
0.00278 0.00278 0.00278
0.00278 0.00278 0.00278
0.00278 0.00278 0.00278
0.00278 0.00278 0.00278
0.00278 0.00278 0.00278
0.00278 0.00278 0.00278
0.00278 0.00278 0.00278
0.00278 0.00278 0.00278
0.00278 0.00278 0.00278
0.00278 0.00278 0.00278
0.00278 0.00278 0.00278
0.00278 0.00278 0.00278
0.00278 0.00278 0.00278
0.00278 0.00278 0.00278
0.00278 0.00278 0.00278
0.00278 0.00278 0.00278
0.00278 0.00278 0.00278
0.00278 0.00278 0.00278
0.00278 0.00278 0.00278
0.00278 0.00278 0.00278
0.00278 0.00278 0.00278
0.00278 0.00278 0.00278
0.00278 0.00278 0.00278
0.00278 0.00278 0.00278
0.00278 0.00278 0.00278
0.00278 0.00278 0.00278
0.00278 0.00278 0.00278
0.00278 0.00278 0.00278
0.00278 0.00278 0.00278
0.00278 0.00278 0.00278
0.00278 0.00278 0.00278
0.00278 0.00278 0.00278
0.00278 0.00278 0.00278
0.00278 0.00278 0.00278
0.00278 0.00278 0.00278
0.00278 0.00278 0.00278
0.00278 0.00278 0.00278
0.00278 0.00278 0.00278
0.00278 0.00278 0.00278
0.00278 0.00278 0.00278
0.00278 0.00278 0.00278
0.00278 0.00278 0.00278
0.00278 0.00278 0.00278
0.00278 0.00278 0.00278
0.00278 0.00278 0.00278
0.00278 0.00278 0.00278
0.00278 0.00278 0.00278
0.00278 0.00278 0.00278
0.00278 0.00278 0.00278
0.00278 0.00278 0.00278
0.00278 0.00278 0.00278
0.00278 0.00278 0.00278
0.00278 0.00278 0.00278
0.00278 0.00278 0.00278
0.00278 0.00278 0.00278
0.00278 0.00278 0.00278
0.00278 0.00278 0.00278
0.00278 0.00278 0.00278
0.00278 0.00278 0.00278
0.00278 0.00278 0.00278
0.00278 0.00278 0.00278
0.00278 0.00278 0.00278
0.00278 0.00278 0.00278
0.00278 0.00278 0.00278
0.00278 0.00278 0.00278
0.00278 0.00278 0.00278
0.00278 0.00278 0.00278
0.00278 0.00278 0.00278
0.00278 0.00278 0.00278
0.00278 0.00278 0.00278
0.00278 0.00278 0.00278
0.00278 0.00278 0.00278
0.00278 0.00278 0.00278
0.00278 0.00278 0.00278
0.00278 0.00278 0.00278
0.00278 0.00278 0.00278
0.00278 0.00278 0.00278
0.00278 0.00278 0.00278
0.00278 0.00278 0.00278
0.00278 0.00278 0.00278
0.00278 0.00278 0.00278
0.00278 0.00278 0.00278
0.00278 0.00278 0.00278
0.00278 0.00278 0.00278
0.00278 0.00278 0.00278
0.00278 0.00278 0.00278
0.00278 0.00278 0.00278
0.00278 0.00278 0.00278
0.00278 0.00278 0.00278
0.00278 0.00278 0.00278
0.00278 0.00278 0.00278
0.00278 0.00278 0.00278
0.00278 0.00278 0.00278
0.00278 0.00278 0.00278
0.00278 0.00278 0.00278
0.00278 0.00278 0.00278
0.00278 0.00278 0.00278
0.00278 0.00278 0.00278
0.00278 0.00278 0.00278
0.00278 0.00278 0.00278
0.00278 0.00278 0.00278
0.00278 0.00278 0.00278
0.00278 0.00278 0.00278
0.00278 0.00278 0.00278
0.00278 0.00278 0.00278
0.00278 0.00278 0.00278
0.00278 0.00278 0.00278
0.00278 0.00278 0.00278
0.00278 0.00278 0.00278
0.00278 0.00278 0.00278
0.00278 0.00278 0.00278
0.00278 0.00278 0.00278
0.00278 0.00278 0.00278
0.00278 0.00278 0.00278
0.00278 0.00278 0.00278
0.00278 0.00278 0.00278
0.00278 0.00278 0.00278
0.00278 0.00278 0.00278
0.00278 0.00278 0.00278
0.00278 0.00278 0.00278
0.00278 0.00278 0.00278
0.00278 0.00278 0.00278
0.00278 0.00278 0.00278
0.00278 0.00278 0.00278
0.00278 0.00278 0.00278
0.00278 0.00278 0.00278
0.00278 0.00278 0.00278
0.00278 0.00278 0.00278
0.00278 0.00278 0.00278
0.00278 0.00278 0.00278
0.00278 0.00278 0.00278
0.00278 0.00278 0.00278
0.00278 0.00278 0.00278
0.00278 0.00278 0.00278
0.00278 0.00278 0.00278
0.00278 0.00278 0.00278
0.00278 0.00278 0.00278
0.00278 0.00278 0.00278
0.00278 0.00278 0.00278
0.00278 0.00278 0.00278
0.00278 0.00278 0.00278
0.00278 0.00278 0.00278
0.00278 0.00278 0.00278
0.00278 0.00278 0.00278
0.00278 0.00278 0.00278
0.00278 0.00278 0.00278
0.00278 0.00278 0.00278
0.00278 0.00278 0.00278
0.00278 0.00278 0.00278
0.00278 0.00278 0.00278
0.00278 0.00278 0.00278
0.00278 0.00278 0.00278
0.00278 0.00278 0.00278
0.00278 0.00278 0.00278
0.00278 0.00278 0.00278
0.00278 0.00278 0.00278
0.00278 0.00278 0.00278
0.00278 0.00278 0.00278
0.00278 0.00278 0.00278
0.00278 0.00278 0.00278
0.00278 0.00278 0.00278
0.00278 0.00278 0.00278
0.00278 0.00278 0.00278
0.00278 0.00278 0.00278
0.00278 0.00278 0.00278
0.00278 0.00278 0.00278
0.00278 0.00278 0.00278
0.00278 0.00278 0.00278
0.00278 0.00278 0.00278
0.00278 0.00278 0.00278
0.00278 0.00278 0.00278
0.00278 0.00278 0.00278
0.00278 0.00278 0.00278
0.00278 0.00278 0.00278
0.00278 0.00278 0.00278
0.00278 0.00278 0.00278
0.00278 0.00278 0.00278
0.00278 0.00278 0.00278
0.00278 0.00278 0.00278
0.00278 0.00278 0.00278
0.00278 0.00278 0.00278
0.00278 0.00278 0.00278
0.00278 0.00278 0.00278
0.00278 0.00278 0.00278
0.00278 0.00278 0.00278
0.00278 0.00278 0.00278
0.00278 0.00278 0.00278
0.00278 0.00278 0.00278
0.00278 0.00278 0.00278
0.00278 0.00278 0.00278
0.00278 0.00278 0.00278
0.00278 0.00278 0.00278
0.00278 0.00278 0.00278
0.00278 0.00278 0.00278
0.00278 0.00278 0.00278
0.00278 0.00278 0.00278
0.00278 0.00278 0.00278
0.00278 0.00278 0.00278
0.00278 0.00278 0.00278
0.00278 0.00278 0.00278
0.00278 0.00278 0.00278
0.00278 0.00278 0.00278
0.00278 0.00278 0.00278
0.00278 0.00278 0.00278
0.00278 0.00278 0.00278
0.00278 0.00278 0.00278
0.00278 0.00278 0.00278
0.00278 0.00278 0.00278
0.00278 0.00278 0.00278
0.00278 0.00278 0.00278
0.00278 0.00278 0.00278
0.00278 0.00278 0.00278
0.00278 0.00278 0.00278
0.00278 0.00278 0.00278
0.00278 0.00278 0.00278
0.00278 0.00278 0.00278
0.00278 0.00278 0.00278
0.00278 0.00278 0.00278
0.00278 0.00278 0.00278
0.00278 0.00278 0.00278
0.00278 0.00278 0.00278
0.00278 0.00278 0.00278
0.00278 0.00278 0.00278
0.00278 0.00278 0.00278
0.00278 0.00278 0.00278
0.00278 0.00278 0.00278
0.00278 0.00278 0.00278
0.00278 0.00278 0.00278
0.00278 0.00278 0.00278
0.00278 0.00278 0.00278
0.00278 0.00278 0.00278
0.00278 0.00278 0.00278
0.00278 0.00278 0.00278
0.00278 0.00278 0.00278
0.00278 0.00278 0.00278
0.00278 0.00278 0.00278
0.00278 0.00278 0.00278
0.00278 0.00278 0.00278
0.00278 0.00278 0.00278
0.00278 0.00278 0.00278
0.00278 0.00278 0.00278
0.00278 0.00278 0.00278
0.00278 0.00278 0.00278
0.00278 0.00278 0.00278
0.00278 0.00278 0.00278
0.00278 0.00278 0.00278
0.00278 0.00278 0.00278
0.00278 0.00278 0.00278
0.00278 0.00278 0.00278
0.00278 0.00278 0.00278
0.00278 0.00278 0.00278
0.00278 0.00278 0.00278
0.00278 0.00278 0.00278
0.00278 0.00278 0.00278
0.00278 0.00278 0.00278
0.00278 0.00278 0.00278
0.00278 0.00278 0.00278
0.00278 0.00278 0.00278
0.00278 0.00278 0.00278
0.00278 0.00278 0.00278
0.00278 0.00278 0.00278
0.00278 0.00278 0.00278
0.00278 0.00278 0.00278
0.00278 0.00278 0.00278
0.00278 0.00278 0.00278
0.00278 0.00278 0.00278
0.00278 0.00278 0.00278
0.00278 0.00278 0.00278
0.00278 0.00278 0.00278
0.00278 0.00278 0.00278
0.00278 0.00278 0.00278
0.00278 0.00278 0.00278
0.00278 0.00278 0.00278
0.00278 0.00278 0.00278
0.00278 0.00278 0.00278
0.00278 0.00278 0.00278
0.00278 0.00278 0.00278
0.00278 0.00278 0.00278
0.00278 0.00278 0.00278
0.00278 0.00278 0.00278
0.00278 0.00278 0.00278
0.00278 0.00278 0.00278
0.00278 0.00278 0.00278
0.00278 0.00278 0.00278
0.00278 0.00278 0.00278
0.00278 0.00278 0.00278
0.00278 0.00278 0.00278
0.00278 0.00278 0.00278
0.00278 0.00278 0.00278
0.00278 0.00278 0.00278
0.00278 0.00278 0.00278
0.00278 0.00278 0.00278
0.00278 0.00278 0.00278
0.00278 0.00278 0.00278
0.00278 0.00278 0.00278
0.00278 0.00278 0.00278
0.00278 0.00278 0.00278
0.00278 0.00278 0.00278
0.00278 0.00278 0.00278
0.00278 0.00278 0.00278
0.00278 0.00278 0.00278
0.00278 0.00278 0.00278
0.00278 0.00278 0.00278
0.00278 0.00278 0.00278
0.00278 0.00278 0.00278
0.00278 0.00278 0.00278
0.00278 0.00278 0.00278
0.00278 0.00278 0.00278
0.00278 0.00278 0.00278
0.00278 0.00278 0.00278
0.00278 0.00278 0.00278
0.00278 0.00278 0.00278
0.00278 0.00278 0.00278
0.00278 0.00278 0.00278
0.00278 0.00278 0.00278
0.00278 0.00278 0.00278
0.00278 0.00278 0.00278
0.00278 0.00278 0.00278
0.00278 0.00278 0.00278
0.00278 0.00278 0.00278
0.00278 0.00278 0.00278
0.00278 0.00278 0.00278
0.00278 0.00278 0.00278
0.00278 0.00278 0.00278
0.00278 0.00278 0.00278
0.00278 0.00278 0.00278
0.00278 0.00278 0.00278
0.00278 0.00278 0.00278
0.00278 0.00278 0.00278
0.00278 0.00278 0.00278
0.00278 0.00278 0.00278
0.00278 0.00278 0.00278
0.00278 0.00278 0.00278
0.00278 0.00278 0.00278
0.00278 0.00278 0.00278
0.00278 0.00278 0.00278
0.00278 0.00278 0.00278
0.00278 0.00278 0.00278
0.00278 0.00278 0.00278
0.00278 0.00278 0.00278
0.00278 0.00278 0.00278
0.00278 0.00278 0.00278
0.00278 0.00278 0.00278
0.00278 0.00278 0.00278
0.00278 0.00278 0.00278
0.00278 0.00278 0.00278
0.00278 0.00278 0.00278
0.00278 0.00278 0.00278
0.00278 0.00278 0.00278
0.00278 0.00278 0.00278
0.00278 0.00278 0.00278
0.00278 0.00278 0.00278
0.00278 0.00278 0.00278
0.00278 0.00278 0.00278
0.00278 0.00278 0.00278
0.00278 0.00278 0.00278
0.00278 0.00278 0.00278
0.00278 0.00278 0.00278
0.00278 0.00278 0.00278
0.00278 0.00278 0.00278
0.00278 0.00278 0.00278
0.00278 0.00278 0.00278
0.00278 0.00278 0.00278
0.00278 0.00278 0.00278
0.00278 0.00278 0.00278
0.00278 0.00278 0.00278
0.00278 0.00278 0.00278
0.00278 0.00278 0.00278
0.00278 0.00278 0.00278
0.00278 0.00278 0.00278
0.00278 0.00278 0.00278
0.00278 0.00278 0.00278
0.00278 0.00278 0.00278
0.00278 0.00278 0.00278
0.00278 0.00278 0.00278
0.00278 0.00278 0.00278
0.00278 0.00278 0.00278
0.00278 0.00278 0.00278
0.00278 0.00278 0.00278
0.00278 0.00278 0.00278
0.00278 0.00278 0.00278
0.00278 0.00278 0.00278
0.00278 0.00278 0.00278
0.00278 0.00278 0.00278
0.00278 0.00278 0.00278
0.00278 0.00278 0.00278
0.00278 0.00278 0.00278
0.00278 0.00278 0.00278
0.00278 0.00278 0.00278
0.00278 0.00278 0.00278
0.00278 0.00278 0.00278
0.00278 0.00278 0.00278
0.00278 0.00278 0.00278
0.00278 0.00278 0.00278
0.00278 0.00278 0.00278
0.00278 0.00278 0.00278
0.00278 0.00278 0.00278
0.00278 0.00278 0.00278
0.00278 0.00278 0.00278
0.00278 0.00278 0.00278
0.00278 0.00278 0.00278
0.00278 0.00278 0.00278
0.00278 0.00278 0.00278
0.00278 0.00278 0.00278
0.00278 0.00278 0.00278
0.00278 0.00278 0.00278
0.00278 0.00278 0.00278
0.00278 0.00278 0.00278
0.00278 0.00278 0.00278
0.00278 0.00278 0.00278
0.00278 0.00278 0.00278
0.00278 0.00278 0.00278
0.00278 0.00278 0.00278
0.00278 0.00278 0.00278
0.00278 0.00278 0.00278
0.00278 0.00278 0.00278
0.00278 0.00278 0.00278
0.00278 0.00278 0.00278
0.00278 0.00278 0.00278
0.00278 0.00278 0.00278
0.00278 0.00278 0.00278
0.00278 0.00278 0.00278
0.00278 0.00278 0.00278
