luts/10^x.01_4.cube
LUT_1D_SIZE 1024

DOMAIN_MIN 0 0 0
DOMAIN_MAX 4 4 4

0.01 0.01 0.01
0.01009044 0.01009044 0.01009044
0.0101817 0.0101817 0.0101817
0.01027378 0.01027378 0.01027378
0.01036669 0.01036669 0.01036669
0.01046045 0.01046045 0.01046045
0.01055505 0.01055505 0.01055505
0.01065051 0.01065051 0.01065051
0.01074683 0.01074683 0.01074683
0.01084403 0.01084403 0.01084403
0.0109421 0.0109421 0.0109421
0.01104106 0.01104106 0.01104106
0.01114091 0.01114091 0.01114091
0.01124167 0.01124167 0.01124167
0.01134334 0.01134334 0.01134334
0.01144593 0.01144593 0.01144593
0.01154944 0.01154944 0.01154944
0.0116539 0.0116539 0.0116539
0.01175929 0.01175929 0.01175929
0.01186564 0.01186564 0.01186564
0.01197296 0.01197296 0.01197296
0.01208124 0.01208124 0.01208124
0.0121905 0.0121905 0.0121905
0.01230075 0.01230075 0.01230075
0.012412 0.012412 0.012412
0.01252425 0.01252425 0.01252425
0.01263752 0.01263752 0.01263752
0.01275181 0.01275181 0.01275181
0.01286714 0.01286714 0.01286714
0.01298351 0.01298351 0.01298351
0.01310093 0.01310093 0.01310093
0.01321941 0.01321941 0.01321941
0.01333897 0.01333897 0.01333897
0.0134596 0.0134596 0.0134596
0.01358133 0.01358133 0.01358133
0.01370416 0.01370416 0.01370416
0.0138281 0.0138281 0.0138281
0.01395316 0.01395316 0.01395316
0.01407935 0.01407935 0.01407935
0.01420668 0.01420668 0.01420668
0.01433517 0.01433517 0.01433517
0.01446481 0.01446481 0.01446481
0.01459563 0.01459563 0.01459563
0.01472763 0.01472763 0.01472763
0.01486083 0.01486083 0.01486083
0.01499523 0.01499523 0.01499523
0.01513084 0.01513084 0.01513084
0.01526769 0.01526769 0.01526769
0.01540577 0.01540577 0.01540577
0.01554509 0.01554509 0.01554509
0.01568568 0.01568568 0.01568568
0.01582754 0.01582754 0.01582754
0.01597069 0.01597069 0.01597069
0.01611512 0.01611512 0.01611512
0.01626087 0.01626087 0.01626087
0.01640793 0.01640793 0.01640793
0.01655632 0.01655632 0.01655632
0.01670605 0.01670605 0.01670605
0.01685714 0.01685714 0.01685714
0.0170096 0.0170096 0.0170096
0.01716343 0.01716343 0.01716343
0.01731866 0.01731866 0.01731866
0.01747528 0.01747528 0.01747528
0.01763333 0.01763333 0.01763333
0.0177928 0.0177928 0.0177928
0.01795372 0.01795372 0.01795372
0.01811609 0.01811609 0.01811609
0.01827993 0.01827993 0.01827993
0.01844525 0.01844525 0.01844525
0.01861207 0.01861207 0.01861207
0.0187804 0.0187804 0.0187804
0.01895025 0.01895025 0.01895025
0.01912163 0.01912163 0.01912163
0.01929457 0.01929457 0.01929457
0.01946906 0.01946906 0.01946906
0.01964514 0.01964514 0.01964514
0.01982281 0.01982281 0.01982281
0.02000209 0.02000209 0.02000209
0.02018298 0.02018298 0.02018298
0.02036552 0.02036552 0.02036552
0.0205497 0.0205497 0.0205497
0.02073555 0.02073555 0.02073555
0.02092308 0.02092308 0.02092308
0.02111231 0.02111231 0.02111231
0.02130324 0.02130324 0.02130324
0.02149591 0.02149591 0.02149591
0.02169032 0.02169032 0.02169032
0.02188648 0.02188648 0.02188648
0.02208442 0.02208442 0.02208442
0.02228415 0.02228415 0.02228415
0.02248569 0.02248569 0.02248569
0.02268905 0.02268905 0.02268905
0.02289424 0.02289424 0.02289424
0.0231013 0.0231013 0.0231013
0.02331022 0.02331022 0.02331022
0.02352104 0.02352104 0.02352104
0.02373376 0.02373376 0.02373376
0.02394841 0.02394841 0.02394841
0.02416499 0.02416499 0.02416499
0.02438354 0.02438354 0.02438354
0.02460406 0.02460406 0.02460406
0.02482658 0.02482658 0.02482658
0.02505111 0.02505111 0.02505111
0.02527767 0.02527767 0.02527767
0.02550628 0.02550628 0.02550628
0.02573696 0.02573696 0.02573696
0.02596972 0.02596972 0.02596972
0.02620459 0.02620459 0.02620459
0.02644158 0.02644158 0.02644158
0.02668071 0.02668071 0.02668071
0.02692201 0.02692201 0.02692201
0.02716549 0.02716549 0.02716549
0.02741118 0.02741118 0.02741118
0.02765908 0.02765908 0.02765908
0.02790923 0.02790923 0.02790923
0.02816164 0.02816164 0.02816164
0.02841633 0.02841633 0.02841633
0.02867332 0.02867332 0.02867332
0.02893264 0.02893264 0.02893264
0.02919431 0.02919431 0.02919431
0.02945834 0.02945834 0.02945834
0.02972475 0.02972475 0.02972475
0.02999358 0.02999358 0.02999358
0.03026484 0.03026484 0.03026484
0.03053856 0.03053856 0.03053856
0.03081474 0.03081474 0.03081474
0.03109343 0.03109343 0.03109343
0.03137464 0.03137464 0.03137464
0.03165839 0.03165839 0.03165839
0.0319447 0.0319447 0.0319447
0.03223361 0.03223361 0.03223361
0.03252512 0.03252512 0.03252512
0.03281928 0.03281928 0.03281928
0.03311609 0.03311609 0.03311609
0.03341559 0.03341559 0.03341559
0.0337178 0.0337178 0.0337178
0.03402274 0.03402274 0.03402274
0.03433044 0.03433044 0.03433044
0.03464092 0.03464092 0.03464092
0.03495421 0.03495421 0.03495421
0.03527033 0.03527033 0.03527033
0.03558932 0.03558932 0.03558932
0.03591118 0.03591118 0.03591118
0.03623596 0.03623596 0.03623596
0.03656368 0.03656368 0.03656368
0.03689435 0.03689435 0.03689435
0.03722802 0.03722802 0.03722802
0.03756471 0.03756471 0.03756471
0.03790444 0.03790444 0.03790444
0.03824725 0.03824725 0.03824725
0.03859315 0.03859315 0.03859315
0.03894219 0.03894219 0.03894219
0.03929438 0.03929438 0.03929438
0.03964975 0.03964975 0.03964975
0.04000834 0.04000834 0.04000834
0.04037017 0.04037017 0.04037017
0.04073528 0.04073528 0.04073528
0.04110368 0.04110368 0.04110368
0.04147542 0.04147542 0.04147542
0.04185052 0.04185052 0.04185052
0.04222901 0.04222901 0.04222901
0.04261093 0.04261093 0.04261093
0.0429963 0.0429963 0.0429963
0.04338516 0.04338516 0.04338516
0.04377753 0.04377753 0.04377753
0.04417345 0.04417345 0.04417345
0.04457295 0.04457295 0.04457295
0.04497606 0.04497606 0.04497606
0.04538282 0.04538282 0.04538282
0.04579326 0.04579326 0.04579326
0.04620741 0.04620741 0.04620741
0.04662531 0.04662531 0.04662531
0.04704698 0.04704698 0.04704698
0.04747247 0.04747247 0.04747247
0.04790181 0.04790181 0.04790181
0.04833503 0.04833503 0.04833503
0.04877217 0.04877217 0.04877217
0.04921326 0.04921326 0.04921326
0.04965834 0.04965834 0.04965834
0.05010744 0.05010744 0.05010744
0.05056061 0.05056061 0.05056061
0.05101788 0.05101788 0.05101788
0.05147928 0.05147928 0.05147928
0.05194485 0.05194485 0.05194485
0.05241464 0.05241464 0.05241464
0.05288867 0.05288867 0.05288867
0.05336699 0.05336699 0.05336699
0.05384964 0.05384964 0.05384964
0.05433665 0.05433665 0.05433665
0.05482807 0.05482807 0.05482807
0.05532393 0.05532393 0.05532393
0.05582427 0.05582427 0.05582427
0.05632914 0.05632914 0.05632914
0.05683858 0.05683858 0.05683858
0.05735262 0.05735262 0.05735262
0.05787131 0.05787131 0.05787131
0.0583947 0.0583947 0.0583947
0.05892281 0.05892281 0.05892281
0.05945571 0.05945571 0.05945571
0.05999342 0.05999342 0.05999342
0.060536 0.060536 0.060536
0.06108348 0.06108348 0.06108348
0.06163591 0.06163591 0.06163591
0.06219334 0.06219334 0.06219334
0.06275581 0.06275581 0.06275581
0.06332337 0.06332337 0.06332337
0.06389606 0.06389606 0.06389606
0.06447393 0.06447393 0.06447393
0.06505703 0.06505703 0.06505703
0.0656454 0.0656454 0.0656454
0.06623909 0.06623909 0.06623909
0.06683815 0.06683815 0.06683815
0.06744263 0.06744263 0.06744263
0.06805258 0.06805258 0.06805258
0.06866804 0.06866804 0.06866804
0.06928907 0.06928907 0.06928907
0.06991571 0.06991571 0.06991571
0.07054802 0.07054802 0.07054802
0.07118605 0.07118605 0.07118605
0.07182985 0.07182985 0.07182985
0.07247948 0.07247948 0.07247948
0.07313498 0.07313498 0.07313498
0.0737964 0.0737964 0.0737964
0.07446381 0.07446381 0.07446381
0.07513726 0.07513726 0.07513726
0.07581679 0.07581679 0.07581679
0.07650247 0.07650247 0.07650247
0.07719435 0.07719435 0.07719435
0.07789249 0.07789249 0.07789249
0.07859695 0.07859695 0.07859695
0.07930777 0.07930777 0.07930777
0.08002502 0.08002502 0.08002502
0.08074876 0.08074876 0.08074876
0.08147905 0.08147905 0.08147905
0.08221594 0.08221594 0.08221594
0.08295949 0.08295949 0.08295949
0.08370977 0.08370977 0.08370977
0.08446683 0.08446683 0.08446683
0.08523075 0.08523075 0.08523075
0.08600156 0.08600156 0.08600156
0.08677936 0.08677936 0.08677936
0.08756418 0.08756418 0.08756418
0.0883561 0.0883561 0.0883561
0.08915519 0.08915519 0.08915519
0.0899615 0.0899615 0.0899615
0.09077511 0.09077511 0.09077511
0.09159607 0.09159607 0.09159607
0.09242446 0.09242446 0.09242446
0.09326033 0.09326033 0.09326033
0.09410377 0.09410377 0.09410377
0.09495484 0.09495484 0.09495484
0.0958136 0.0958136 0.0958136
0.09668013 0.09668013 0.09668013
0.0975545 0.0975545 0.0975545
0.09843678 0.09843678 0.09843678
0.09932703 0.09932703 0.09932703
0.10022534 0.10022534 0.10022534
0.10113176 0.10113176 0.10113176
0.10204639 0.10204639 0.10204639
0.10296929 0.10296929 0.10296929
0.10390054 0.10390054 0.10390054
0.1048402 0.1048402 0.1048402
0.10578837 0.10578837 0.10578837
0.10674511 0.10674511 0.10674511
0.10771051 0.10771051 0.10771051
0.10868463 0.10868463 0.10868463
0.10966757 0.10966757 0.10966757
0.11065939 0.11065939 0.11065939
0.11166018 0.11166018 0.11166018
0.11267003 0.11267003 0.11267003
0.11368901 0.11368901 0.11368901
0.1147172 0.1147172 0.1147172
0.11575469 0.11575469 0.11575469
0.11680157 0.11680157 0.11680157
0.11785791 0.11785791 0.11785791
0.11892381 0.11892381 0.11892381
0.11999935 0.11999935 0.11999935
0.12108461 0.12108461 0.12108461
0.12217969 0.12217969 0.12217969
0.12328467 0.12328467 0.12328467
0.12439965 0.12439965 0.12439965
0.12552471 0.12552471 0.12552471
0.12665995 0.12665995 0.12665995
0.12780545 0.12780545 0.12780545
0.12896131 0.12896131 0.12896131
0.13012762 0.13012762 0.13012762
0.13130449 0.13130449 0.13130449
0.13249199 0.13249199 0.13249199
0.13369024 0.13369024 0.13369024
0.13489932 0.13489932 0.13489932
0.13611934 0.13611934 0.13611934
0.13735039 0.13735039 0.13735039
0.13859258 0.13859258 0.13859258
0.139846 0.139846 0.139846
0.14111076 0.14111076 0.14111076
0.14238695 0.14238695 0.14238695
0.14367469 0.14367469 0.14367469
0.14497407 0.14497407 0.14497407
0.1462852 0.1462852 0.1462852
0.14760819 0.14760819 0.14760819
0.14894315 0.14894315 0.14894315
0.15029018 0.15029018 0.15029018
0.15164939 0.15164939 0.15164939
0.15302089 0.15302089 0.15302089
0.1544048 0.1544048 0.1544048
0.15580123 0.15580123 0.15580123
0.15721028 0.15721028 0.15721028
0.15863208 0.15863208 0.15863208
0.16006673 0.16006673 0.16006673
0.16151436 0.16151436 0.16151436
0.16297508 0.16297508 0.16297508
0.16444902 0.16444902 0.16444902
0.16593628 0.16593628 0.16593628
0.16743699 0.16743699 0.16743699
0.16895128 0.16895128 0.16895128
0.17047926 0.17047926 0.17047926
0.17202106 0.17202106 0.17202106
0.17357681 0.17357681 0.17357681
0.17514662 0.17514662 0.17514662
0.17673063 0.17673063 0.17673063
0.17832897 0.17832897 0.17832897
0.17994176 0.17994176 0.17994176
0.18156914 0.18156914 0.18156914
0.18321123 0.18321123 0.18321123
0.18486818 0.18486818 0.18486818
0.18654011 0.18654011 0.18654011
0.18822717 0.18822717 0.18822717
0.18992948 0.18992948 0.18992948
0.19164718 0.19164718 0.19164718
0.19338043 0.19338043 0.19338043
0.19512934 0.19512934 0.19512934
0.19689408 0.19689408 0.19689408
0.19867477 0.19867477 0.19867477
0.20047157 0.20047157 0.20047157
0.20228462 0.20228462 0.20228462
0.20411406 0.20411406 0.20411406
0.20596005 0.20596005 0.20596005
0.20782274 0.20782274 0.20782274
0.20970227 0.20970227 0.20970227
0.2115988 0.2115988 0.2115988
0.21351248 0.21351248 0.21351248
0.21544347 0.21544347 0.21544347
0.21739192 0.21739192 0.21739192
0.219358 0.219358 0.219358
0.22134185 0.22134185 0.22134185
0.22334365 0.22334365 0.22334365
0.22536355 0.22536355 0.22536355
0.22740172 0.22740172 0.22740172
0.22945832 0.22945832 0.22945832
0.23153352 0.23153352 0.23153352
0.23362749 0.23362749 0.23362749
0.2357404 0.2357404 0.2357404
0.23787242 0.23787242 0.23787242
0.24002372 0.24002372 0.24002372
0.24219447 0.24219447 0.24219447
0.24438486 0.24438486 0.24438486
0.24659505 0.24659505 0.24659505
0.24882524 0.24882524 0.24882524
0.25107559 0.25107559 0.25107559
0.2533463 0.2533463 0.2533463
0.25563754 0.25563754 0.25563754
0.25794951 0.25794951 0.25794951
0.26028238 0.26028238 0.26028238
0.26263635 0.26263635 0.26263635
0.26501161 0.26501161 0.26501161
0.26740836 0.26740836 0.26740836
0.26982678 0.26982678 0.26982678
0.27226707 0.27226707 0.27226707
0.27472943 0.27472943 0.27472943
0.27721406 0.27721406 0.27721406
0.27972116 0.27972116 0.27972116
0.28225093 0.28225093 0.28225093
0.28480359 0.28480359 0.28480359
0.28737933 0.28737933 0.28737933
0.28997836 0.28997836 0.28997836
0.2926009 0.2926009 0.2926009
0.29524716 0.29524716 0.29524716
0.29791735 0.29791735 0.29791735
0.30061169 0.30061169 0.30061169
0.3033304 0.3033304 0.3033304
0.30607369 0.30607369 0.30607369
0.3088418 0.3088418 0.3088418
0.31163494 0.31163494 0.31163494
0.31445334 0.31445334 0.31445334
0.31729723 0.31729723 0.31729723
0.32016684 0.32016684 0.32016684
0.3230624 0.3230624 0.3230624
0.32598415 0.32598415 0.32598415
0.32893232 0.32893232 0.32893232
0.33190716 0.33190716 0.33190716
0.3349089 0.3349089 0.3349089
0.33793779 0.33793779 0.33793779
0.34099407 0.34099407 0.34099407
0.34407799 0.34407799 0.34407799
0.3471898 0.3471898 0.3471898
0.35032976 0.35032976 0.35032976
0.35349811 0.35349811 0.35349811
0.35669512 0.35669512 0.35669512
0.35992104 0.35992104 0.35992104
0.36317613 0.36317613 0.36317613
0.36646067 0.36646067 0.36646067
0.36977491 0.36977491 0.36977491
0.37311912 0.37311912 0.37311912
0.37649358 0.37649358 0.37649358
0.37989856 0.37989856 0.37989856
0.38333433 0.38333433 0.38333433
0.38680117 0.38680117 0.38680117
0.39029937 0.39029937 0.39029937
0.3938292 0.3938292 0.3938292
0.39739096 0.39739096 0.39739096
0.40098493 0.40098493 0.40098493
0.40461141 0.40461141 0.40461141
0.40827068 0.40827068 0.40827068
0.41196305 0.41196305 0.41196305
0.4156888 0.4156888 0.4156888
0.41944826 0.41944826 0.41944826
0.42324171 0.42324171 0.42324171
0.42706948 0.42706948 0.42706948
0.43093186 0.43093186 0.43093186
0.43482917 0.43482917 0.43482917
0.43876173 0.43876173 0.43876173
0.44272985 0.44272985 0.44272985
0.44673387 0.44673387 0.44673387
0.45077409 0.45077409 0.45077409
0.45485085 0.45485085 0.45485085
0.45896449 0.45896449 0.45896449
0.46311532 0.46311532 0.46311532
0.4673037 0.4673037 0.4673037
0.47152995 0.47152995 0.47152995
0.47579443 0.47579443 0.47579443
0.48009748 0.48009748 0.48009748
0.48443944 0.48443944 0.48443944
0.48882067 0.48882067 0.48882067
0.49324152 0.49324152 0.49324152
0.49770236 0.49770236 0.49770236
0.50220354 0.50220354 0.50220354
0.50674542 0.50674542 0.50674542
0.51132839 0.51132839 0.51132839
0.5159528 0.5159528 0.5159528
0.52061903 0.52061903 0.52061903
0.52532747 0.52532747 0.52532747
0.53007848 0.53007848 0.53007848
0.53487247 0.53487247 0.53487247
0.53970981 0.53970981 0.53970981
0.5445909 0.5445909 0.5445909
0.54951614 0.54951614 0.54951614
0.55448591 0.55448591 0.55448591
0.55950064 0.55950064 0.55950064
0.56456072 0.56456072 0.56456072
0.56966656 0.56966656 0.56966656
0.57481857 0.57481857 0.57481857
0.58001718 0.58001718 0.58001718
0.58526281 0.58526281 0.58526281
0.59055588 0.59055588 0.59055588
0.59589682 0.59589682 0.59589682
0.60128606 0.60128606 0.60128606
0.60672404 0.60672404 0.60672404
0.6122112 0.6122112 0.6122112
0.61774799 0.61774799 0.61774799
0.62333485 0.62333485 0.62333485
0.62897224 0.62897224 0.62897224
0.63466061 0.63466061 0.63466061
0.64040043 0.64040043 0.64040043
0.64619216 0.64619216 0.64619216
0.65203626 0.65203626 0.65203626
0.65793322 0.65793322 0.65793322
0.66388352 0.66388352 0.66388352
0.66988762 0.66988762 0.66988762
0.67594603 0.67594603 0.67594603
0.68205923 0.68205923 0.68205923
0.68822772 0.68822772 0.68822772
0.69445199 0.69445199 0.69445199
0.70073256 0.70073256 0.70073256
0.70706993 0.70706993 0.70706993
0.71346461 0.71346461 0.71346461
0.71991712 0.71991712 0.71991712
0.72642799 0.72642799 0.72642799
0.73299775 0.73299775 0.73299775
0.73962692 0.73962692 0.73962692
0.74631604 0.74631604 0.74631604
0.75306566 0.75306566 0.75306566
0.75987632 0.75987632 0.75987632
0.76674858 0.76674858 0.76674858
0.77368299 0.77368299 0.77368299
0.78068012 0.78068012 0.78068012
0.78774052 0.78774052 0.78774052
0.79486478 0.79486478 0.79486478
0.80205347 0.80205347 0.80205347
0.80930718 0.80930718 0.80930718
0.81662648 0.81662648 0.81662648
0.82401199 0.82401199 0.82401199
0.83146428 0.83146428 0.83146428
0.83898398 0.83898398 0.83898398
0.84657168 0.84657168 0.84657168
0.854228 0.854228 0.854228
0.86195357 0.86195357 0.86195357
0.869749 0.869749 0.869749
0.87761494 0.87761494 0.87761494
0.88555202 0.88555202 0.88555202
0.89356087 0.89356087 0.89356087
0.90164216 0.90164216 0.90164216
0.90979654 0.90979654 0.90979654
0.91802467 0.91802467 0.91802467
0.9263272 0.9263272 0.9263272
0.93470483 0.93470483 0.93470483
0.94315822 0.94315822 0.94315822
0.95168807 0.95168807 0.95168807
0.96029505 0.96029505 0.96029505
0.96897988 0.96897988 0.96897988
0.97774326 0.97774326 0.97774326
0.98658588 0.98658588 0.98658588
0.99550848 0.99550848 0.99550848
1.00451178 1.00451178 1.00451178
1.0135965 1.0135965 1.0135965
1.02276338 1.02276338 1.02276338
1.03201317 1.03201317 1.03201317
1.04134661 1.04134661 1.04134661
1.05076446 1.05076446 1.05076446
1.06026749 1.06026749 1.06026749
1.06985646 1.06985646 1.06985646
1.07953215 1.07953215 1.07953215
1.08929535 1.08929535 1.08929535
1.09914685 1.09914685 1.09914685
1.10908744 1.10908744 1.10908744
1.11911793 1.11911793 1.11911793
1.12923914 1.12923914 1.12923914
1.13945189 1.13945189 1.13945189
1.149757 1.149757 1.149757
1.1601553 1.1601553 1.1601553
1.17064765 1.17064765 1.17064765
1.18123489 1.18123489 1.18123489
1.19191788 1.19191788 1.19191788
1.20269748 1.20269748 1.20269748
1.21357458 1.21357458 1.21357458
1.22455005 1.22455005 1.22455005
1.23562478 1.23562478 1.23562478
1.24679966 1.24679966 1.24679966
1.25807562 1.25807562 1.25807562
1.26945355 1.26945355 1.26945355
1.28093438 1.28093438 1.28093438
1.29251904 1.29251904 1.29251904
1.30420848 1.30420848 1.30420848
1.31600363 1.31600363 1.31600363
1.32790546 1.32790546 1.32790546
1.33991492 1.33991492 1.33991492
1.352033 1.352033 1.352033
1.36426067 1.36426067 1.36426067
1.37659893 1.37659893 1.37659893
1.38904878 1.38904878 1.38904878
1.40161122 1.40161122 1.40161122
1.41428728 1.41428728 1.41428728
1.42707797 1.42707797 1.42707797
1.43998435 1.43998435 1.43998435
1.45300745 1.45300745 1.45300745
1.46614832 1.46614832 1.46614832
1.47940805 1.47940805 1.47940805
1.49278769 1.49278769 1.49278769
1.50628834 1.50628834 1.50628834
1.51991108 1.51991108 1.51991108
1.53365703 1.53365703 1.53365703
1.5475273 1.5475273 1.5475273
1.56152301 1.56152301 1.56152301
1.57564529 1.57564529 1.57564529
1.58989529 1.58989529 1.58989529
1.60427417 1.60427417 1.60427417
1.6187831 1.6187831 1.6187831
1.63342324 1.63342324 1.63342324
1.64819578 1.64819578 1.64819578
1.66310192 1.66310192 1.66310192
1.67814288 1.67814288 1.67814288
1.69331986 1.69331986 1.69331986
1.70863411 1.70863411 1.70863411
1.72408685 1.72408685 1.72408685
1.73967935 1.73967935 1.73967935
1.75541286 1.75541286 1.75541286
1.77128867 1.77128867 1.77128867
1.78730806 1.78730806 1.78730806
1.80347232 1.80347232 1.80347232
1.81978278 1.81978278 1.81978278
1.83624074 1.83624074 1.83624074
1.85284755 1.85284755 1.85284755
1.86960455 1.86960455 1.86960455
1.88651309 1.88651309 1.88651309
1.90357456 1.90357456 1.90357456
1.92079033 1.92079033 1.92079033
1.9381618 1.9381618 1.9381618
1.95569037 1.95569037 1.95569037
1.97337747 1.97337747 1.97337747
1.99122453 1.99122453 1.99122453
2.009233 2.009233 2.009233
2.02740434 2.02740434 2.02740434
2.04574001 2.04574001 2.04574001
2.06424152 2.06424152 2.06424152
2.08291034 2.08291034 2.08291034
2.10174801 2.10174801 2.10174801
2.12075604 2.12075604 2.12075604
2.13993599 2.13993599 2.13993599
2.15928939 2.15928939 2.15928939
2.17881782 2.17881782 2.17881782
2.19852287 2.19852287 2.19852287
2.21840613 2.21840613 2.21840613
2.23846921 2.23846921 2.23846921
2.25871373 2.25871373 2.25871373
2.27914135 2.27914135 2.27914135
2.29975372 2.29975372 2.29975372
2.3205525 2.3205525 2.3205525
2.34153938 2.34153938 2.34153938
2.36271607 2.36271607 2.36271607
2.38408427 2.38408427 2.38408427
2.40564573 2.40564573 2.40564573
2.42740219 2.42740219 2.42740219
2.44935542 2.44935542 2.44935542
2.47150718 2.47150718 2.47150718
2.49385929 2.49385929 2.49385929
2.51641354 2.51641354 2.51641354
2.53917178 2.53917178 2.53917178
2.56213583 2.56213583 2.56213583
2.58530758 2.58530758 2.58530758
2.60868888 2.60868888 2.60868888
2.63228165 2.63228165 2.63228165
2.65608778 2.65608778 2.65608778
2.68010922 2.68010922 2.68010922
2.7043479 2.7043479 2.7043479
2.7288058 2.7288058 2.7288058
2.75348489 2.75348489 2.75348489
2.77838718 2.77838718 2.77838718
2.80351468 2.80351468 2.80351468
2.82886943 2.82886943 2.82886943
2.85445349 2.85445349 2.85445349
2.88026893 2.88026893 2.88026893
2.90631784 2.90631784 2.90631784
2.93260234 2.93260234 2.93260234
2.95912455 2.95912455 2.95912455
2.98588663 2.98588663 2.98588663
3.01289074 3.01289074 3.01289074
3.04013907 3.04013907 3.04013907
3.06763383 3.06763383 3.06763383
3.09537726 3.09537726 3.09537726
3.12337159 3.12337159 3.12337159
3.1516191 3.1516191 3.1516191
3.18012208 3.18012208 3.18012208
3.20888284 3.20888284 3.20888284
3.23790371 3.23790371 3.23790371
3.26718704 3.26718704 3.26718704
3.29673521 3.29673521 3.29673521
3.32655061 3.32655061 3.32655061
3.35663565 3.35663565 3.35663565
3.38699279 3.38699279 3.38699279
3.41762447 3.41762447 3.41762447
3.44853318 3.44853318 3.44853318
3.47972142 3.47972142 3.47972142
3.51119173 3.51119173 3.51119173
3.54294666 3.54294666 3.54294666
3.57498877 3.57498877 3.57498877
3.60732067 3.60732067 3.60732067
3.63994498 3.63994498 3.63994498
3.67286434 3.67286434 3.67286434
3.70608142 3.70608142 3.70608142
3.73959891 3.73959891 3.73959891
3.77341953 3.77341953 3.77341953
3.80754602 3.80754602 3.80754602
3.84198115 3.84198115 3.84198115
3.87672771 3.87672771 3.87672771
3.91178851 3.91178851 3.91178851
3.9471664 3.9471664 3.9471664
3.98286424 3.98286424 3.98286424
4.01888493 4.01888493 4.01888493
4.05523139 4.05523139 4.05523139
4.09190657 4.09190657 4.09190657
4.12891343 4.12891343 4.12891343
4.16625498 4.16625498 4.16625498
4.20393424 4.20393424 4.20393424
4.24195427 4.24195427 4.24195427
4.28031815 4.28031815 4.28031815
4.31902899 4.31902899 4.31902899
4.35808993 4.35808993 4.35808993
4.39750413 4.39750413 4.39750413
4.43727479 4.43727479 4.43727479
4.47740513 4.47740513 4.47740513
4.51789841 4.51789841 4.51789841
4.55875791 4.55875791 4.55875791
4.59998694 4.59998694 4.59998694
4.64158883 4.64158883 4.64158883
4.68356698 4.68356698 4.68356698
4.72592476 4.72592476 4.72592476
4.76866563 4.76866563 4.76866563
4.81179305 4.81179305 4.81179305
4.8553105 4.8553105 4.8553105
4.89922153 4.89922153 4.89922153
4.94352968 4.94352968 4.94352968
4.98823855 4.98823855 4.98823855
5.03335176 5.03335176 5.03335176
5.07887297 5.07887297 5.07887297
5.12480588 5.12480588 5.12480588
5.17115419 5.17115419 5.17115419
5.21792168 5.21792168 5.21792168
5.26511213 5.26511213 5.26511213
5.31272936 5.31272936 5.31272936
5.36077725 5.36077725 5.36077725
5.40925967 5.40925967 5.40925967
5.45818056 5.45818056 5.45818056
5.50754389 5.50754389 5.50754389
5.55735366 5.55735366 5.55735366
5.6076139 5.6076139 5.6076139
5.65832869 5.65832869 5.65832869
5.70950215 5.70950215 5.70950215
5.76113841 5.76113841 5.76113841
5.81324166 5.81324166 5.81324166
5.86581613 5.86581613 5.86581613
5.91886609 5.91886609 5.91886609
5.97239582 5.97239582 5.97239582
6.02640967 6.02640967 6.02640967
6.08091201 6.08091201 6.08091201
6.13590727 6.13590727 6.13590727
6.19139991 6.19139991 6.19139991
6.24739441 6.24739441 6.24739441
6.30389532 6.30389532 6.30389532
6.36090723 6.36090723 6.36090723
6.41843474 6.41843474 6.41843474
6.47648253 6.47648253 6.47648253
6.5350553 6.5350553 6.5350553
6.59415779 6.59415779 6.59415779
6.65379481 6.65379481 6.65379481
6.71397117 6.71397117 6.71397117
6.77469177 6.77469177 6.77469177
6.83596151 6.83596151 6.83596151
6.89778538 6.89778538 6.89778538
6.96016837 6.96016837 6.96016837
7.02311556 7.02311556 7.02311556
7.08663203 7.08663203 7.08663203
7.15072294 7.15072294 7.15072294
7.21539348 7.21539348 7.21539348
