luts/density.cube
LUT_1D_SIZE 1024
3.00987563 3.00987563 3.00987563
3.00987563 3.00987563 3.00987563
2.70884564 2.70884564 2.70884564
2.53275438 2.53275438 2.53275438
2.40781564 2.40781564 2.40781564
2.31090563 2.31090563 2.31090563
2.23172438 2.23172438 2.23172438
2.16477759 2.16477759 2.16477759
2.10678565 2.10678565 2.10678565
2.05563312 2.05563312 2.05563312
2.00987563 2.00987563 2.00987563
1.96848295 1.96848295 1.96848295
1.93069439 1.93069439 1.93069439
1.89593228 1.89593228 1.89593228
1.8637476 1.8637476 1.8637476
1.83378437 1.83378437 1.83378437
1.80575565 1.80575565 1.80575565
1.77942671 1.77942671 1.77942671
1.75460313 1.75460313 1.75460313
1.73112203 1.73112203 1.73112203
1.70884564 1.70884564 1.70884564
1.68765634 1.68765634 1.68765634
1.66745295 1.66745295 1.66745295
1.6481478 1.6481478 1.6481478
1.62966439 1.62966439 1.62966439
1.61193563 1.61193563 1.61193563
1.59490229 1.59490229 1.59490229
1.57851187 1.57851187 1.57851187
1.5627176 1.5627176 1.5627176
1.54747764 1.54747764 1.54747764
1.53275438 1.53275438 1.53275438
1.51851394 1.51851394 1.51851394
1.50472566 1.50472566 1.50472566
1.49136169 1.49136169 1.49136169
1.47839672 1.47839672 1.47839672
1.46580759 1.46580759 1.46580759
1.45357313 1.45357313 1.45357313
1.44167391 1.44167391 1.44167391
1.43009204 1.43009204 1.43009204
1.41881103 1.41881103 1.41881103
1.40781564 1.40781564 1.40781564
1.39709178 1.39709178 1.39709178
1.38662634 1.38662634 1.38662634
1.37640718 1.37640718 1.37640718
1.36642296 1.36642296 1.36642296
1.35666312 1.35666312 1.35666312
1.3471178 1.3471178 1.3471178
1.33777778 1.33777778 1.33777778
1.3286344 1.3286344 1.3286344
1.31967955 1.31967955 1.31967955
1.31090563 1.31090563 1.31090563
1.30230546 1.30230546 1.30230546
1.29387229 1.29387229 1.29387229
1.28559976 1.28559976 1.28559976
1.27748187 1.27748187 1.27748187
1.26951294 1.26951294 1.26951294
1.26168761 1.26168761 1.26168761
1.25400078 1.25400078 1.25400078
1.24644764 1.24644764 1.24644764
1.23902362 1.23902362 1.23902362
1.23172438 1.23172438 1.23172438
1.2245458 1.2245458 1.2245458
1.21748394 1.21748394 1.21748394
1.21053508 1.21053508 1.21053508
1.20369566 1.20369566 1.20369566
1.19696228 1.19696228 1.19696228
1.1903317 1.1903317 1.1903317
1.18380083 1.18380083 1.18380083
1.17736672 1.17736672 1.17736672
1.17102654 1.17102654 1.17102654
1.16477759 1.16477759 1.16477759
1.15861728 1.15861728 1.15861728
1.15254314 1.15254314 1.15254314
1.14655277 1.14655277 1.14655277
1.14064391 1.14064391 1.14064391
1.13481437 1.13481437 1.13481437
1.12906204 1.12906204 1.12906204
1.12338491 1.12338491 1.12338491
1.11778103 1.11778103 1.11778103
1.11224854 1.11224854 1.11224854
1.10678565 1.10678565 1.10678565
1.10139061 1.10139061 1.10139061
1.09606178 1.09606178 1.09606178
1.09079754 1.09079754 1.09079754
1.08559635 1.08559635 1.08559635
1.08045671 1.08045671 1.08045671
1.07537718 1.07537718 1.07537718
1.07035638 1.07035638 1.07035638
1.06539296 1.06539296 1.06539296
1.06048563 1.06048563 1.06048563
1.05563312 1.05563312 1.05563312
1.05083424 1.05083424 1.05083424
1.04608781 1.04608781 1.04608781
1.04139269 1.04139269 1.04139269
1.03674778 1.03674778 1.03674778
1.03215203 1.03215203 1.03215203
1.0276044 1.0276044 1.0276044
1.0231039 1.0231039 1.0231039
1.01864956 1.01864956 1.01864956
1.01424044 1.01424044 1.01424044
1.00987563 1.00987563 1.00987563
1.00555426 1.00555426 1.00555426
1.00127546 1.00127546 1.00127546
0.99703841 0.99703841 0.99703841
0.99284229 0.99284229 0.99284229
0.98868633 0.98868633 0.98868633
0.98456977 0.98456977 0.98456977
0.98049186 0.98049186 0.98049186
0.97645188 0.97645188 0.97645188
0.97244914 0.97244914 0.97244914
0.96848295 0.96848295 0.96848295
0.96455265 0.96455265 0.96455265
0.96065761 0.96065761 0.96065761
0.95679719 0.95679719 0.95679719
0.95297078 0.95297078 0.95297078
0.94917779 0.94917779 0.94917779
0.94541764 0.94541764 0.94541764
0.94168977 0.94168977 0.94168977
0.93799363 0.93799363 0.93799363
0.93432867 0.93432867 0.93432867
0.93069439 0.93069439 0.93069439
0.92709026 0.92709026 0.92709026
0.9235158 0.9235158 0.9235158
0.91997052 0.91997052 0.91997052
0.91645395 0.91645395 0.91645395
0.91296562 0.91296562 0.91296562
0.90950509 0.90950509 0.90950509
0.90607191 0.90607191 0.90607191
0.90266566 0.90266566 0.90266566
0.89928592 0.89928592 0.89928592
0.89593228 0.89593228 0.89593228
0.89260434 0.89260434 0.89260434
0.8893017 0.8893017 0.8893017
0.88602399 0.88602399 0.88602399
0.88277084 0.88277084 0.88277084
0.87954187 0.87954187 0.87954187
0.87633673 0.87633673 0.87633673
0.87315507 0.87315507 0.87315507
0.86999655 0.86999655 0.86999655
0.86686083 0.86686083 0.86686083
0.8637476 0.8637476 0.8637476
0.86065652 0.86065652 0.86065652
0.85758729 0.85758729 0.85758729
0.8545396 0.8545396 0.8545396
0.85151314 0.85151314 0.85151314
0.84850763 0.84850763 0.84850763
0.84552278 0.84552278 0.84552278
0.8425583 0.8425583 0.8425583
0.83961392 0.83961392 0.83961392
0.83668937 0.83668937 0.83668937
0.83378437 0.83378437 0.83378437
0.83089869 0.83089869 0.83089869
0.82803205 0.82803205 0.82803205
0.8251842 0.8251842 0.8251842
0.82235491 0.82235491 0.82235491
0.81954394 0.81954394 0.81954394
0.81675104 0.81675104 0.81675104
0.81397598 0.81397598 0.81397598
0.81121855 0.81121855 0.81121855
0.80847851 0.80847851 0.80847851
0.80575565 0.80575565 0.80575565
0.80304976 0.80304976 0.80304976
0.80036062 0.80036062 0.80036062
0.79768803 0.79768803 0.79768803
0.79503179 0.79503179 0.79503179
0.79239169 0.79239169 0.79239169
0.78976755 0.78976755 0.78976755
0.78715916 0.78715916 0.78715916
0.78456635 0.78456635 0.78456635
0.78198893 0.78198893 0.78198893
0.77942671 0.77942671 0.77942671
0.77687952 0.77687952 0.77687952
0.77434719 0.77434719 0.77434719
0.77182953 0.77182953 0.77182953
0.76932639 0.76932639 0.76932639
0.76683759 0.76683759 0.76683759
0.76436297 0.76436297 0.76436297
0.76190237 0.76190237 0.76190237
0.75945563 0.75945563 0.75945563
0.7570226 0.7570226 0.7570226
0.75460313 0.75460313 0.75460313
0.75219706 0.75219706 0.75219706
0.74980425 0.74980425 0.74980425
0.74742454 0.74742454 0.74742454
0.74505781 0.74505781 0.74505781
0.74270391 0.74270391 0.74270391
0.74036269 0.74036269 0.74036269
0.73803403 0.73803403 0.73803403
0.73571778 0.73571778 0.73571778
0.73341383 0.73341383 0.73341383
0.73112203 0.73112203 0.73112203
0.72884227 0.72884227 0.72884227
0.72657441 0.72657441 0.72657441
0.72431832 0.72431832 0.72431832
0.7220739 0.7220739 0.7220739
0.71984102 0.71984102 0.71984102
0.71761956 0.71761956 0.71761956
0.71540941 0.71540941 0.71540941
0.71321044 0.71321044 0.71321044
0.71102256 0.71102256 0.71102256
0.70884564 0.70884564 0.70884564
0.70667958 0.70667958 0.70667958
0.70452426 0.70452426 0.70452426
0.7023796 0.7023796 0.7023796
0.70024547 0.70024547 0.70024547
0.69812177 0.69812177 0.69812177
0.69600841 0.69600841 0.69600841
0.69390529 0.69390529 0.69390529
0.6918123 0.6918123 0.6918123
0.68972935 0.68972935 0.68972935
0.68765634 0.68765634 0.68765634
0.68559318 0.68559318 0.68559318
0.68353977 0.68353977 0.68353977
0.68149603 0.68149603 0.68149603
0.67946186 0.67946186 0.67946186
0.67743717 0.67743717 0.67743717
0.67542188 0.67542188 0.67542188
0.6734159 0.6734159 0.6734159
0.67141914 0.67141914 0.67141914
0.66943152 0.66943152 0.66943152
0.66745295 0.66745295 0.66745295
0.66548336 0.66548336 0.66548336
0.66352266 0.66352266 0.66352266
0.66157077 0.66157077 0.66157077
0.65962762 0.65962762 0.65962762
0.65769312 0.65769312 0.65769312
0.65576719 0.65576719 0.65576719
0.65384978 0.65384978 0.65384978
0.65194079 0.65194079 0.65194079
0.65004015 0.65004015 0.65004015
0.6481478 0.6481478 0.6481478
0.64626365 0.64626365 0.64626365
0.64438765 0.64438765 0.64438765
0.64251971 0.64251971 0.64251971
0.64065978 0.64065978 0.64065978
0.63880777 0.63880777 0.63880777
0.63696363 0.63696363 0.63696363
0.63512729 0.63512729 0.63512729
0.63329868 0.63329868 0.63329868
0.63147773 0.63147773 0.63147773
0.62966439 0.62966439 0.62966439
0.62785859 0.62785859 0.62785859
0.62606027 0.62606027 0.62606027
0.62426936 0.62426936 0.62426936
0.62248581 0.62248581 0.62248581
0.62070955 0.62070955 0.62070955
0.61894053 0.61894053 0.61894053
0.61717868 0.61717868 0.61717868
0.61542395 0.61542395 0.61542395
0.61367629 0.61367629 0.61367629
0.61193563 0.61193563 0.61193563
0.61020191 0.61020191 0.61020191
0.60847509 0.60847509 0.60847509
0.60675511 0.60675511 0.60675511
0.60504192 0.60504192 0.60504192
0.60333545 0.60333545 0.60333545
0.60163567 0.60163567 0.60163567
0.59994251 0.59994251 0.59994251
0.59825593 0.59825593 0.59825593
0.59657587 0.59657587 0.59657587
0.59490229 0.59490229 0.59490229
0.59323513 0.59323513 0.59323513
0.59157434 0.59157434 0.59157434
0.58991989 0.58991989 0.58991989
0.58827171 0.58827171 0.58827171
0.58662976 0.58662976 0.58662976
0.584994 0.584994 0.584994
0.58336437 0.58336437 0.58336437
0.58174084 0.58174084 0.58174084
0.58012335 0.58012335 0.58012335
0.57851187 0.57851187 0.57851187
0.57690634 0.57690634 0.57690634
0.57530673 0.57530673 0.57530673
0.57371299 0.57371299 0.57371299
0.57212507 0.57212507 0.57212507
0.57054294 0.57054294 0.57054294
0.56896655 0.56896655 0.56896655
0.56739586 0.56739586 0.56739586
0.56583084 0.56583084 0.56583084
0.56427143 0.56427143 0.56427143
0.5627176 0.5627176 0.5627176
0.56116931 0.56116931 0.56116931
0.55962653 0.55962653 0.55962653
0.5580892 0.5580892 0.5580892
0.55655729 0.55655729 0.55655729
0.55503077 0.55503077 0.55503077
0.5535096 0.5535096 0.5535096
0.55199374 0.55199374 0.55199374
0.55048315 0.55048315 0.55048315
0.54897779 0.54897779 0.54897779
0.54747764 0.54747764 0.54747764
0.54598264 0.54598264 0.54598264
0.54449278 0.54449278 0.54449278
0.54300801 0.54300801 0.54300801
0.5415283 0.5415283 0.5415283
0.54005362 0.54005362 0.54005362
0.53858392 0.53858392 0.53858392
0.53711918 0.53711918 0.53711918
0.53565937 0.53565937 0.53565937
0.53420445 0.53420445 0.53420445
0.53275438 0.53275438 0.53275438
0.53130914 0.53130914 0.53130914
0.52986869 0.52986869 0.52986869
0.52843301 0.52843301 0.52843301
0.52700205 0.52700205 0.52700205
0.52557579 0.52557579 0.52557579
0.52415421 0.52415421 0.52415421
0.52273726 0.52273726 0.52273726
0.52132492 0.52132492 0.52132492
0.51991715 0.51991715 0.51991715
0.51851394 0.51851394 0.51851394
0.51711524 0.51711524 0.51711524
0.51572104 0.51572104 0.51572104
0.5143313 0.5143313 0.5143313
0.51294599 0.51294599 0.51294599
0.51156508 0.51156508 0.51156508
0.51018855 0.51018855 0.51018855
0.50881637 0.50881637 0.50881637
0.50744851 0.50744851 0.50744851
0.50608495 0.50608495 0.50608495
0.50472566 0.50472566 0.50472566
0.5033706 0.5033706 0.5033706
0.50201976 0.50201976 0.50201976
0.50067311 0.50067311 0.50067311
0.49933062 0.49933062 0.49933062
0.49799227 0.49799227 0.49799227
0.49665803 0.49665803 0.49665803
0.49532788 0.49532788 0.49532788
0.49400179 0.49400179 0.49400179
0.49267974 0.49267974 0.49267974
0.49136169 0.49136169 0.49136169
0.49004764 0.49004764 0.49004764
0.48873755 0.48873755 0.48873755
0.4874314 0.4874314 0.4874314
0.48612917 0.48612917 0.48612917
0.48483083 0.48483083 0.48483083
0.48353636 0.48353636 0.48353636
0.48224573 0.48224573 0.48224573
0.48095893 0.48095893 0.48095893
0.47967594 0.47967594 0.47967594
0.47839672 0.47839672 0.47839672
0.47712125 0.47712125 0.47712125
0.47584953 0.47584953 0.47584953
0.47458151 0.47458151 0.47458151
0.47331719 0.47331719 0.47331719
0.47205654 0.47205654 0.47205654
0.47079953 0.47079953 0.47079953
0.46954616 0.46954616 0.46954616
0.46829639 0.46829639 0.46829639
0.46705021 0.46705021 0.46705021
0.46580759 0.46580759 0.46580759
0.46456852 0.46456852 0.46456852
0.46333297 0.46333297 0.46333297
0.46210093 0.46210093 0.46210093
0.46087237 0.46087237 0.46087237
0.45964728 0.45964728 0.45964728
0.45842564 0.45842564 0.45842564
0.45720742 0.45720742 0.45720742
0.45599261 0.45599261 0.45599261
0.45478119 0.45478119 0.45478119
0.45357313 0.45357313 0.45357313
0.45236843 0.45236843 0.45236843
0.45116706 0.45116706 0.45116706
0.44996901 0.44996901 0.44996901
0.44877425 0.44877425 0.44877425
0.44758277 0.44758277 0.44758277
0.44639455 0.44639455 0.44639455
0.44520957 0.44520957 0.44520957
0.44402782 0.44402782 0.44402782
0.44284927 0.44284927 0.44284927
0.44167391 0.44167391 0.44167391
0.44050172 0.44050172 0.44050172
0.43933269 0.43933269 0.43933269
0.4381668 0.4381668 0.4381668
0.43700403 0.43700403 0.43700403
0.43584437 0.43584437 0.43584437
0.43468779 0.43468779 0.43468779
0.43353428 0.43353428 0.43353428
0.43238383 0.43238383 0.43238383
0.43123642 0.43123642 0.43123642
0.43009204 0.43009204 0.43009204
0.42895066 0.42895066 0.42895066
0.42781227 0.42781227 0.42781227
0.42667686 0.42667686 0.42667686
0.42554441 0.42554441 0.42554441
0.4244149 0.4244149 0.4244149
0.42328833 0.42328833 0.42328833
0.42216467 0.42216467 0.42216467
0.42104391 0.42104391 0.42104391
0.41992603 0.41992603 0.41992603
0.41881103 0.41881103 0.41881103
0.41769888 0.41769888 0.41769888
0.41658957 0.41658957 0.41658957
0.41548308 0.41548308 0.41548308
0.41437941 0.41437941 0.41437941
0.41327854 0.41327854 0.41327854
0.41218045 0.41218045 0.41218045
0.41108513 0.41108513 0.41108513
0.40999256 0.40999256 0.40999256
0.40890274 0.40890274 0.40890274
0.40781564 0.40781564 0.40781564
0.40673126 0.40673126 0.40673126
0.40564958 0.40564958 0.40564958
0.40457059 0.40457059 0.40457059
0.40349427 0.40349427 0.40349427
0.40242061 0.40242061 0.40242061
0.4013496 0.4013496 0.4013496
0.40028122 0.40028122 0.40028122
0.39921547 0.39921547 0.39921547
0.39815233 0.39815233 0.39815233
0.39709178 0.39709178 0.39709178
0.39603381 0.39603381 0.39603381
0.39497842 0.39497842 0.39497842
0.39392558 0.39392558 0.39392558
0.39287529 0.39287529 0.39287529
0.39182754 0.39182754 0.39182754
0.3907823 0.3907823 0.3907823
0.38973958 0.38973958 0.38973958
0.38869935 0.38869935 0.38869935
0.38766161 0.38766161 0.38766161
0.38662634 0.38662634 0.38662634
0.38559354 0.38559354 0.38559354
0.38456318 0.38456318 0.38456318
0.38353527 0.38353527 0.38353527
0.38250978 0.38250978 0.38250978
0.3814867 0.3814867 0.3814867
0.38046603 0.38046603 0.38046603
0.37944776 0.37944776 0.37944776
0.37843186 0.37843186 0.37843186
0.37741834 0.37741834 0.37741834
0.37640718 0.37640718 0.37640718
0.37539836 0.37539836 0.37539836
0.37439189 0.37439189 0.37439189
0.37338774 0.37338774 0.37338774
0.3723859 0.3723859 0.3723859
0.37138638 0.37138638 0.37138638
0.37038914 0.37038914 0.37038914
0.3693942 0.3693942 0.3693942
0.36840152 0.36840152 0.36840152
0.36741111 0.36741111 0.36741111
0.36642296 0.36642296 0.36642296
0.36543704 0.36543704 0.36543704
0.36445336 0.36445336 0.36445336
0.36347191 0.36347191 0.36347191
0.36249266 0.36249266 0.36249266
0.36151562 0.36151562 0.36151562
0.36054078 0.36054078 0.36054078
0.35956811 0.35956811 0.35956811
0.35859762 0.35859762 0.35859762
0.35762929 0.35762929 0.35762929
0.35666312 0.35666312 0.35666312
0.35569909 0.35569909 0.35569909
0.3547372 0.3547372 0.3547372
0.35377743 0.35377743 0.35377743
0.35281978 0.35281978 0.35281978
0.35186424 0.35186424 0.35186424
0.35091079 0.35091079 0.35091079
0.34995943 0.34995943 0.34995943
0.34901016 0.34901016 0.34901016
0.34806295 0.34806295 0.34806295
0.3471178 0.3471178 0.3471178
0.34617471 0.34617471 0.34617471
0.34523366 0.34523366 0.34523366
0.34429464 0.34429464 0.34429464
0.34335765 0.34335765 0.34335765
0.34242268 0.34242268 0.34242268
0.34148972 0.34148972 0.34148972
0.34055875 0.34055875 0.34055875
0.33962978 0.33962978 0.33962978
0.33870279 0.33870279 0.33870279
0.33777778 0.33777778 0.33777778
0.33685473 0.33685473 0.33685473
0.33593364 0.33593364 0.33593364
0.33501449 0.33501449 0.33501449
0.33409729 0.33409729 0.33409729
0.33318202 0.33318202 0.33318202
0.33226868 0.33226868 0.33226868
0.33135725 0.33135725 0.33135725
0.33044774 0.33044774 0.33044774
0.32954012 0.32954012 0.32954012
0.3286344 0.3286344 0.3286344
0.32773056 0.32773056 0.32773056
0.3268286 0.3268286 0.3268286
0.3259285 0.3259285 0.3259285
0.32503027 0.32503027 0.32503027
0.3241339 0.3241339 0.3241339
0.32323936 0.32323936 0.32323936
0.32234667 0.32234667 0.32234667
0.32145581 0.32145581 0.32145581
0.32056677 0.32056677 0.32056677
0.31967955 0.31967955 0.31967955
0.31879414 0.31879414 0.31879414
0.31791053 0.31791053 0.31791053
0.31702871 0.31702871 0.31702871
0.31614868 0.31614868 0.31614868
0.31527043 0.31527043 0.31527043
0.31439396 0.31439396 0.31439396
0.31351924 0.31351924 0.31351924
0.31264629 0.31264629 0.31264629
0.31177509 0.31177509 0.31177509
0.31090563 0.31090563 0.31090563
0.31003791 0.31003791 0.31003791
0.30917192 0.30917192 0.30917192
0.30830765 0.30830765 0.30830765
0.3074451 0.3074451 0.3074451
0.30658426 0.30658426 0.30658426
0.30572512 0.30572512 0.30572512
0.30486767 0.30486767 0.30486767
0.30401192 0.30401192 0.30401192
0.30315785 0.30315785 0.30315785
0.30230546 0.30230546 0.30230546
0.30145473 0.30145473 0.30145473
0.30060567 0.30060567 0.30060567
0.29975827 0.29975827 0.29975827
0.29891251 0.29891251 0.29891251
0.2980684 0.2980684 0.2980684
0.29722593 0.29722593 0.29722593
0.29638509 0.29638509 0.29638509
0.29554587 0.29554587 0.29554587
0.29470828 0.29470828 0.29470828
0.29387229 0.29387229 0.29387229
0.29303791 0.29303791 0.29303791
0.29220513 0.29220513 0.29220513
0.29137394 0.29137394 0.29137394
0.29054435 0.29054435 0.29054435
0.28971633 0.28971633 0.28971633
0.28888989 0.28888989 0.28888989
0.28806502 0.28806502 0.28806502
0.28724171 0.28724171 0.28724171
0.28641996 0.28641996 0.28641996
0.28559976 0.28559976 0.28559976
0.28478111 0.28478111 0.28478111
0.283964 0.283964 0.283964
0.28314842 0.28314842 0.28314842
0.28233438 0.28233438 0.28233438
0.28152185 0.28152185 0.28152185
0.28071084 0.28071084 0.28071084
0.27990135 0.27990135 0.27990135
0.27909336 0.27909336 0.27909336
0.27828687 0.27828687 0.27828687
0.27748187 0.27748187 0.27748187
0.27667837 0.27667837 0.27667837
0.27587635 0.27587635 0.27587635
0.2750758 0.2750758 0.2750758
0.27427673 0.27427673 0.27427673
0.27347913 0.27347913 0.27347913
0.27268299 0.27268299 0.27268299
0.27188831 0.27188831 0.27188831
0.27109508 0.27109508 0.27109508
0.27030329 0.27030329 0.27030329
0.26951294 0.26951294 0.26951294
0.26872403 0.26872403 0.26872403
0.26793656 0.26793656 0.26793656
0.2671505 0.2671505 0.2671505
0.26636587 0.26636587 0.26636587
0.26558265 0.26558265 0.26558265
0.26480084 0.26480084 0.26480084
0.26402044 0.26402044 0.26402044
0.26324143 0.26324143 0.26324143
0.26246383 0.26246383 0.26246383
0.26168761 0.26168761 0.26168761
0.26091277 0.26091277 0.26091277
0.26013932 0.26013932 0.26013932
0.25936724 0.25936724 0.25936724
0.25859653 0.25859653 0.25859653
0.25782719 0.25782719 0.25782719
0.2570592 0.2570592 0.2570592
0.25629257 0.25629257 0.25629257
0.2555273 0.2555273 0.2555273
0.25476337 0.25476337 0.25476337
0.25400078 0.25400078 0.25400078
0.25323953 0.25323953 0.25323953
0.2524796 0.2524796 0.2524796
0.25172101 0.25172101 0.25172101
0.25096374 0.25096374 0.25096374
0.25020779 0.25020779 0.25020779
0.24945315 0.24945315 0.24945315
0.24869982 0.24869982 0.24869982
0.2479478 0.2479478 0.2479478
0.24719707 0.24719707 0.24719707
0.24644764 0.24644764 0.24644764
0.2456995 0.2456995 0.2456995
0.24495265 0.24495265 0.24495265
0.24420708 0.24420708 0.24420708
0.24346279 0.24346279 0.24346279
0.24271977 0.24271977 0.24271977
0.24197802 0.24197802 0.24197802
0.24123753 0.24123753 0.24123753
0.24049831 0.24049831 0.24049831
0.23976034 0.23976034 0.23976034
0.23902362 0.23902362 0.23902362
0.23828815 0.23828815 0.23828815
0.23755393 0.23755393 0.23755393
0.23682094 0.23682094 0.23682094
0.23608919 0.23608919 0.23608919
0.23535867 0.23535867 0.23535867
0.23462937 0.23462937 0.23462937
0.2339013 0.2339013 0.2339013
0.23317445 0.23317445 0.23317445
0.23244881 0.23244881 0.23244881
0.23172438 0.23172438 0.23172438
0.23100116 0.23100116 0.23100116
0.23027914 0.23027914 0.23027914
0.22955832 0.22955832 0.22955832
0.2288387 0.2288387 0.2288387
0.22812026 0.22812026 0.22812026
0.22740301 0.22740301 0.22740301
0.22668694 0.22668694 0.22668694
0.22597205 0.22597205 0.22597205
0.22525834 0.22525834 0.22525834
0.2245458 0.2245458 0.2245458
0.22383442 0.22383442 0.22383442
0.22312421 0.22312421 0.22312421
0.22241516 0.22241516 0.22241516
0.22170726 0.22170726 0.22170726
0.22100052 0.22100052 0.22100052
0.22029492 0.22029492 0.22029492
0.21959047 0.21959047 0.21959047
0.21888716 0.21888716 0.21888716
0.21818498 0.21818498 0.21818498
0.21748394 0.21748394 0.21748394
0.21678403 0.21678403 0.21678403
0.21608525 0.21608525 0.21608525
0.21538759 0.21538759 0.21538759
0.21469104 0.21469104 0.21469104
0.21399562 0.21399562 0.21399562
0.2133013 0.2133013 0.2133013
0.21260809 0.21260809 0.21260809
0.21191599 0.21191599 0.21191599
0.21122499 0.21122499 0.21122499
0.21053508 0.21053508 0.21053508
0.20984627 0.20984627 0.20984627
0.20915856 0.20915856 0.20915856
0.20847192 0.20847192 0.20847192
0.20778638 0.20778638 0.20778638
0.20710191 0.20710191 0.20710191
0.20641852 0.20641852 0.20641852
0.2057362 0.2057362 0.2057362
0.20505495 0.20505495 0.20505495
0.20437478 0.20437478 0.20437478
0.20369566 0.20369566 0.20369566
0.2030176 0.2030176 0.2030176
0.20234061 0.20234061 0.20234061
0.20166466 0.20166466 0.20166466
0.20098977 0.20098977 0.20098977
0.20031592 0.20031592 0.20031592
0.19964312 0.19964312 0.19964312
0.19897135 0.19897135 0.19897135
0.19830063 0.19830063 0.19830063
0.19763094 0.19763094 0.19763094
0.19696228 0.19696228 0.19696228
0.19629465 0.19629465 0.19629465
0.19562804 0.19562804 0.19562804
0.19496245 0.19496245 0.19496245
0.19429789 0.19429789 0.19429789
0.19363433 0.19363433 0.19363433
0.19297179 0.19297179 0.19297179
0.19231026 0.19231026 0.19231026
0.19164974 0.19164974 0.19164974
0.19099022 0.19099022 0.19099022
0.1903317 0.1903317 0.1903317
0.18967417 0.18967417 0.18967417
0.18901764 0.18901764 0.18901764
0.18836211 0.18836211 0.18836211
0.18770755 0.18770755 0.18770755
0.18705399 0.18705399 0.18705399
0.1864014 0.1864014 0.1864014
0.1857498 0.1857498 0.1857498
0.18509917 0.18509917 0.18509917
0.18444952 0.18444952 0.18444952
0.18380083 0.18380083 0.18380083
0.18315311 0.18315311 0.18315311
0.18250636 0.18250636 0.18250636
0.18186057 0.18186057 0.18186057
0.18121574 0.18121574 0.18121574
0.18057186 0.18057186 0.18057186
0.17992894 0.17992894 0.17992894
0.17928697 0.17928697 0.17928697
0.17864594 0.17864594 0.17864594
0.17800586 0.17800586 0.17800586
0.17736672 0.17736672 0.17736672
0.17672852 0.17672852 0.17672852
0.17609126 0.17609126 0.17609126
0.17545493 0.17545493 0.17545493
0.17481953 0.17481953 0.17481953
0.17418506 0.17418506 0.17418506
0.17355152 0.17355152 0.17355152
0.1729189 0.1729189 0.1729189
0.1722872 0.1722872 0.1722872
0.17165641 0.17165641 0.17165641
0.17102654 0.17102654 0.17102654
0.17039759 0.17039759 0.17039759
0.16976954 0.16976954 0.16976954
0.1691424 0.1691424 0.1691424
0.16851616 0.16851616 0.16851616
0.16789083 0.16789083 0.16789083
0.16726639 0.16726639 0.16726639
0.16664286 0.16664286 0.16664286
0.16602021 0.16602021 0.16602021
0.16539846 0.16539846 0.16539846
0.16477759 0.16477759 0.16477759
0.16415762 0.16415762 0.16415762
0.16353852 0.16353852 0.16353852
0.16292031 0.16292031 0.16292031
0.16230297 0.16230297 0.16230297
0.16168652 0.16168652 0.16168652
0.16107093 0.16107093 0.16107093
0.16045622 0.16045622 0.16045622
0.15984238 0.15984238 0.15984238
0.1592294 0.1592294 0.1592294
0.15861728 0.15861728 0.15861728
0.15800603 0.15800603 0.15800603
0.15739564 0.15739564 0.15739564
0.1567861 0.1567861 0.1567861
0.15617742 0.15617742 0.15617742
0.15556959 0.15556959 0.15556959
0.15496261 0.15496261 0.15496261
0.15435648 0.15435648 0.15435648
0.15375119 0.15375119 0.15375119
0.15314674 0.15314674 0.15314674
0.15254314 0.15254314 0.15254314
0.15194037 0.15194037 0.15194037
0.15133844 0.15133844 0.15133844
0.15073734 0.15073734 0.15073734
0.15013707 0.15013707 0.15013707
0.14953763 0.14953763 0.14953763
0.14893901 0.14893901 0.14893901
0.14834122 0.14834122 0.14834122
0.14774425 0.14774425 0.14774425
0.14714811 0.14714811 0.14714811
0.14655277 0.14655277 0.14655277
0.14595826 0.14595826 0.14595826
