luts/inv_density.cube
LUT_1D_SIZE 512

DOMAIN_MIN 0 0 0
DOMAIN_MAX 4 4 4

1 1 1
0.98213731 0.98213731 0.98213731
0.9645937 0.9645937 0.9645937
0.94736347 0.94736347 0.94736347
0.93044101 0.93044101 0.93044101
0.91382084 0.91382084 0.91382084
0.89749754 0.89749754 0.89749754
0.88146583 0.88146583 0.88146583
0.86572048 0.86572048 0.86572048
0.85025639 0.85025639 0.85025639
0.83506852 0.83506852 0.83506852
0.82015196 0.82015196 0.82015196
0.80550184 0.80550184 0.80550184
0.79111341 0.79111341 0.79111341
0.776982 0.776982 0.776982
0.76310302 0.76310302 0.76310302
0.74947195 0.74947195 0.74947195
0.73608436 0.73608436 0.73608436
0.72293592 0.72293592 0.72293592
0.71002234 0.71002234 0.71002234
0.69733944 0.69733944 0.69733944
0.68488308 0.68488308 0.68488308
0.67264923 0.67264923 0.67264923
0.66063391 0.66063391 0.66063391
0.64883321 0.64883321 0.64883321
0.63724331 0.63724331 0.63724331
0.62586043 0.62586043 0.62586043
0.61468088 0.61468088 0.61468088
0.60370103 0.60370103 0.60370103
0.59291731 0.59291731 0.59291731
0.58232621 0.58232621 0.58232621
0.5719243 0.5719243 0.5719243
0.5617082 0.5617082 0.5617082
0.55167458 0.55167458 0.55167458
0.54182019 0.54182019 0.54182019
0.53214183 0.53214183 0.53214183
0.52263635 0.52263635 0.52263635
0.51330066 0.51330066 0.51330066
0.50413173 0.50413173 0.50413173
0.49512658 0.49512658 0.49512658
0.48628229 0.48628229 0.48628229
0.47759598 0.47759598 0.47759598
0.46906484 0.46906484 0.46906484
0.46068608 0.46068608 0.46068608
0.45245699 0.45245699 0.45245699
0.44437489 0.44437489 0.44437489
0.43643716 0.43643716 0.43643716
0.42864122 0.42864122 0.42864122
0.42098454 0.42098454 0.42098454
0.41346462 0.41346462 0.41346462
0.40607903 0.40607903 0.40607903
0.39882537 0.39882537 0.39882537
0.39170128 0.39170128 0.39170128
0.38470444 0.38470444 0.38470444
0.37783259 0.37783259 0.37783259
0.37108348 0.37108348 0.37108348
0.36445494 0.36445494 0.36445494
0.35794479 0.35794479 0.35794479
0.35155094 0.35155094 0.35155094
0.34527129 0.34527129 0.34527129
0.33910382 0.33910382 0.33910382
0.33304651 0.33304651 0.33304651
0.32709741 0.32709741 0.32709741
0.32125457 0.32125457 0.32125457
0.3155161 0.3155161 0.3155161
0.30988014 0.30988014 0.30988014
0.30434484 0.30434484 0.30434484
0.29890843 0.29890843 0.29890843
0.29356912 0.29356912 0.29356912
0.28832519 0.28832519 0.28832519
0.28317493 0.28317493 0.28317493
0.27811666 0.27811666 0.27811666
0.27314875 0.27314875 0.27314875
0.26826958 0.26826958 0.26826958
0.26347756 0.26347756 0.26347756
0.25877115 0.25877115 0.25877115
0.2541488 0.2541488 0.2541488
0.24960902 0.24960902 0.24960902
0.24515033 0.24515033 0.24515033
0.24077129 0.24077129 0.24077129
0.23647047 0.23647047 0.23647047
0.23224647 0.23224647 0.23224647
0.22809792 0.22809792 0.22809792
0.22402348 0.22402348 0.22402348
0.22002182 0.22002182 0.22002182
0.21609164 0.21609164 0.21609164
0.21223166 0.21223166 0.21223166
0.20844063 0.20844063 0.20844063
0.20471733 0.20471733 0.20471733
0.20106052 0.20106052 0.20106052
0.19746904 0.19746904 0.19746904
0.19394172 0.19394172 0.19394172
0.1904774 0.1904774 0.1904774
0.18707496 0.18707496 0.18707496
0.1837333 0.1837333 0.1837333
0.18045133 0.18045133 0.18045133
0.17722798 0.17722798 0.17722798
0.17406221 0.17406221 0.17406221
0.17095299 0.17095299 0.17095299
0.16789931 0.16789931 0.16789931
0.16490018 0.16490018 0.16490018
0.16195462 0.16195462 0.16195462
0.15906168 0.15906168 0.15906168
0.15622041 0.15622041 0.15622041
0.15342989 0.15342989 0.15342989
0.15068922 0.15068922 0.15068922
0.14799751 0.14799751 0.14799751
0.14535388 0.14535388 0.14535388
0.14275746 0.14275746 0.14275746
0.14020743 0.14020743 0.14020743
0.13770295 0.13770295 0.13770295
0.13524321 0.13524321 0.13524321
0.1328274 0.1328274 0.1328274
0.13045475 0.13045475 0.13045475
0.12812447 0.12812447 0.12812447
0.12583583 0.12583583 0.12583583
0.12358806 0.12358806 0.12358806
0.12138045 0.12138045 0.12138045
0.11921226 0.11921226 0.11921226
0.11708281 0.11708281 0.11708281
0.1149914 0.1149914 0.1149914
0.11293734 0.11293734 0.11293734
0.11091998 0.11091998 0.11091998
0.10893865 0.10893865 0.10893865
0.10699271 0.10699271 0.10699271
0.10508154 0.10508154 0.10508154
0.1032045 0.1032045 0.1032045
0.10136099 0.10136099 0.10136099
0.09955041 0.09955041 0.09955041
0.09777217 0.09777217 0.09777217
0.0960257 0.0960257 0.0960257
0.09431042 0.09431042 0.09431042
0.09262578 0.09262578 0.09262578
0.09097124 0.09097124 0.09097124
0.08934625 0.08934625 0.08934625
0.08775028 0.08775028 0.08775028
0.08618283 0.08618283 0.08618283
0.08464337 0.08464337 0.08464337
0.08313141 0.08313141 0.08313141
0.08164646 0.08164646 0.08164646
0.08018804 0.08018804 0.08018804
0.07875566 0.07875566 0.07875566
0.07734888 0.07734888 0.07734888
0.07596722 0.07596722 0.07596722
0.07461024 0.07461024 0.07461024
0.0732775 0.0732775 0.0732775
0.07196857 0.07196857 0.07196857
0.07068302 0.07068302 0.07068302
0.06942043 0.06942043 0.06942043
0.06818039 0.06818039 0.06818039
0.06696251 0.06696251 0.06696251
0.06576638 0.06576638 0.06576638
0.06459161 0.06459161 0.06459161
0.06343783 0.06343783 0.06343783
0.06230466 0.06230466 0.06230466
0.06119173 0.06119173 0.06119173
0.06009869 0.06009869 0.06009869
0.05902516 0.05902516 0.05902516
0.05797081 0.05797081 0.05797081
0.0569353 0.0569353 0.0569353
0.05591828 0.05591828 0.05591828
0.05491943 0.05491943 0.05491943
0.05393842 0.05393842 0.05393842
0.05297494 0.05297494 0.05297494
0.05202866 0.05202866 0.05202866
0.05109929 0.05109929 0.05109929
0.05018652 0.05018652 0.05018652
0.04929005 0.04929005 0.04929005
0.0484096 0.0484096 0.0484096
0.04754488 0.04754488 0.04754488
0.0466956 0.0466956 0.0466956
0.04586149 0.04586149 0.04586149
0.04504228 0.04504228 0.04504228
0.0442377 0.0442377 0.0442377
0.0434475 0.0434475 0.0434475
0.04267141 0.04267141 0.04267141
0.04190918 0.04190918 0.04190918
0.04116057 0.04116057 0.04116057
0.04042533 0.04042533 0.04042533
0.03970323 0.03970323 0.03970323
0.03899402 0.03899402 0.03899402
0.03829748 0.03829748 0.03829748
0.03761339 0.03761339 0.03761339
0.03694151 0.03694151 0.03694151
0.03628164 0.03628164 0.03628164
0.03563355 0.03563355 0.03563355
0.03499704 0.03499704 0.03499704
0.0343719 0.0343719 0.0343719
0.03375792 0.03375792 0.03375792
0.03315492 0.03315492 0.03315492
0.03256268 0.03256268 0.03256268
0.03198102 0.03198102 0.03198102
0.03140976 0.03140976 0.03140976
0.03084869 0.03084869 0.03084869
0.03029765 0.03029765 0.03029765
0.02975646 0.02975646 0.02975646
0.02922493 0.02922493 0.02922493
0.02870289 0.02870289 0.02870289
0.02819018 0.02819018 0.02819018
0.02768663 0.02768663 0.02768663
0.02719207 0.02719207 0.02719207
0.02670635 0.02670635 0.02670635
0.0262293 0.0262293 0.0262293
0.02576077 0.02576077 0.02576077
0.02530062 0.02530062 0.02530062
0.02484868 0.02484868 0.02484868
0.02440482 0.02440482 0.02440482
0.02396888 0.02396888 0.02396888
0.02354073 0.02354073 0.02354073
0.02312023 0.02312023 0.02312023
0.02270724 0.02270724 0.02270724
0.02230163 0.02230163 0.02230163
0.02190326 0.02190326 0.02190326
0.02151201 0.02151201 0.02151201
0.02112775 0.02112775 0.02112775
0.02075035 0.02075035 0.02075035
0.02037969 0.02037969 0.02037969
0.02001566 0.02001566 0.02001566
0.01965812 0.01965812 0.01965812
0.01930698 0.01930698 0.01930698
0.0189621 0.0189621 0.0189621
0.01862339 0.01862339 0.01862339
0.01829072 0.01829072 0.01829072
0.017964 0.017964 0.017964
0.01764312 0.01764312 0.01764312
0.01732796 0.01732796 0.01732796
0.01701844 0.01701844 0.01701844
0.01671445 0.01671445 0.01671445
0.01641588 0.01641588 0.01641588
0.01612265 0.01612265 0.01612265
0.01583466 0.01583466 0.01583466
0.01555181 0.01555181 0.01555181
0.01527401 0.01527401 0.01527401
0.01500117 0.01500117 0.01500117
0.01473321 0.01473321 0.01473321
0.01447004 0.01447004 0.01447004
0.01421156 0.01421156 0.01421156
0.01395771 0.01395771 0.01395771
0.01370839 0.01370839 0.01370839
0.01346352 0.01346352 0.01346352
0.01322302 0.01322302 0.01322302
0.01298682 0.01298682 0.01298682
0.01275484 0.01275484 0.01275484
0.01252701 0.01252701 0.01252701
0.01230324 0.01230324 0.01230324
0.01208347 0.01208347 0.01208347
0.01186763 0.01186763 0.01186763
0.01165564 0.01165564 0.01165564
0.01144744 0.01144744 0.01144744
0.01124296 0.01124296 0.01124296
0.01104213 0.01104213 0.01104213
0.01084489 0.01084489 0.01084489
0.01065117 0.01065117 0.01065117
0.01046091 0.01046091 0.01046091
0.01027405 0.01027405 0.01027405
0.01009053 0.01009053 0.01009053
0.00991028 0.00991028 0.00991028
0.00973326 0.00973326 0.00973326
0.0095594 0.0095594 0.0095594
0.00938864 0.00938864 0.00938864
0.00922093 0.00922093 0.00922093
0.00905622 0.00905622 0.00905622
0.00889446 0.00889446 0.00889446
0.00873558 0.00873558 0.00873558
0.00857954 0.00857954 0.00857954
0.00842628 0.00842628 0.00842628
0.00827577 0.00827577 0.00827577
0.00812794 0.00812794 0.00812794
0.00798275 0.00798275 0.00798275
0.00784016 0.00784016 0.00784016
0.00770011 0.00770011 0.00770011
0.00756257 0.00756257 0.00756257
0.00742748 0.00742748 0.00742748
0.00729481 0.00729481 0.00729481
0.0071645 0.0071645 0.0071645
0.00703652 0.00703652 0.00703652
0.00691083 0.00691083 0.00691083
0.00678739 0.00678739 0.00678739
0.00666614 0.00666614 0.00666614
0.00654707 0.00654707 0.00654707
0.00643012 0.00643012 0.00643012
0.00631526 0.00631526 0.00631526
0.00620245 0.00620245 0.00620245
0.00609166 0.00609166 0.00609166
0.00598285 0.00598285 0.00598285
0.00587598 0.00587598 0.00587598
0.00577102 0.00577102 0.00577102
0.00566793 0.00566793 0.00566793
0.00556669 0.00556669 0.00556669
0.00546725 0.00546725 0.00546725
0.00536959 0.00536959 0.00536959
0.00527368 0.00527368 0.00527368
0.00517947 0.00517947 0.00517947
0.00508696 0.00508696 0.00508696
0.00499609 0.00499609 0.00499609
0.00490685 0.00490685 0.00490685
0.0048192 0.0048192 0.0048192
0.00473311 0.00473311 0.00473311
0.00464857 0.00464857 0.00464857
0.00456553 0.00456553 0.00456553
0.00448398 0.00448398 0.00448398
0.00440388 0.00440388 0.00440388
0.00432522 0.00432522 0.00432522
0.00424796 0.00424796 0.00424796
0.00417208 0.00417208 0.00417208
0.00409755 0.00409755 0.00409755
0.00402436 0.00402436 0.00402436
0.00395247 0.00395247 0.00395247
0.00388187 0.00388187 0.00388187
0.00381253 0.00381253 0.00381253
0.00374443 0.00374443 0.00374443
0.00367754 0.00367754 0.00367754
0.00361185 0.00361185 0.00361185
0.00354733 0.00354733 0.00354733
0.00348397 0.00348397 0.00348397
0.00342174 0.00342174 0.00342174
0.00336062 0.00336062 0.00336062
0.00330059 0.00330059 0.00330059
0.00324163 0.00324163 0.00324163
0.00318372 0.00318372 0.00318372
0.00312685 0.00312685 0.00312685
0.003071 0.003071 0.003071
0.00301614 0.00301614 0.00301614
0.00296227 0.00296227 0.00296227
0.00290935 0.00290935 0.00290935
0.00285738 0.00285738 0.00285738
0.00280634 0.00280634 0.00280634
0.00275622 0.00275622 0.00275622
0.00270698 0.00270698 0.00270698
0.00265863 0.00265863 0.00265863
0.00261114 0.00261114 0.00261114
0.0025645 0.0025645 0.0025645
0.00251869 0.00251869 0.00251869
0.0024737 0.0024737 0.0024737
0.00242951 0.00242951 0.00242951
0.00238611 0.00238611 0.00238611
0.00234349 0.00234349 0.00234349
0.00230163 0.00230163 0.00230163
0.00226052 0.00226052 0.00226052
0.00222014 0.00222014 0.00222014
0.00218048 0.00218048 0.00218048
0.00214153 0.00214153 0.00214153
0.00210328 0.00210328 0.00210328
0.00206571 0.00206571 0.00206571
0.00202881 0.00202881 0.00202881
0.00199257 0.00199257 0.00199257
0.00195697 0.00195697 0.00195697
0.00192202 0.00192202 0.00192202
0.00188769 0.00188769 0.00188769
0.00185397 0.00185397 0.00185397
0.00182085 0.00182085 0.00182085
0.00178832 0.00178832 0.00178832
0.00175638 0.00175638 0.00175638
0.00172501 0.00172501 0.00172501
0.00169419 0.00169419 0.00169419
0.00166393 0.00166393 0.00166393
0.00163421 0.00163421 0.00163421
0.00160502 0.00160502 0.00160502
0.00157635 0.00157635 0.00157635
0.00154819 0.00154819 0.00154819
0.00152053 0.00152053 0.00152053
0.00149337 0.00149337 0.00149337
0.0014667 0.0014667 0.0014667
0.0014405 0.0014405 0.0014405
0.00141477 0.00141477 0.00141477
0.0013895 0.0013895 0.0013895
0.00136468 0.00136468 0.00136468
0.0013403 0.0013403 0.0013403
0.00131636 0.00131636 0.00131636
0.00129284 0.00129284 0.00129284
0.00126975 0.00126975 0.00126975
0.00124707 0.00124707 0.00124707
0.00122479 0.00122479 0.00122479
0.00120291 0.00120291 0.00120291
0.00118143 0.00118143 0.00118143
0.00116032 0.00116032 0.00116032
0.0011396 0.0011396 0.0011396
0.00111924 0.00111924 0.00111924
0.00109925 0.00109925 0.00109925
0.00107961 0.00107961 0.00107961
0.00106033 0.00106033 0.00106033
0.00104139 0.00104139 0.00104139
0.00102279 0.00102279 0.00102279
0.00100452 0.00100452 0.00100452
0.00098657 0.00098657 0.00098657
0.00096895 0.00096895 0.00096895
0.00095164 0.00095164 0.00095164
0.00093464 0.00093464 0.00093464
0.00091795 0.00091795 0.00091795
0.00090155 0.00090155 0.00090155
0.00088545 0.00088545 0.00088545
0.00086963 0.00086963 0.00086963
0.0008541 0.0008541 0.0008541
0.00083884 0.00083884 0.00083884
0.00082386 0.00082386 0.00082386
0.00080914 0.00080914 0.00080914
0.00079469 0.00079469 0.00079469
0.00078049 0.00078049 0.00078049
0.00076655 0.00076655 0.00076655
0.00075286 0.00075286 0.00075286
0.00073941 0.00073941 0.00073941
0.0007262 0.0007262 0.0007262
0.00071323 0.00071323 0.00071323
0.00070049 0.00070049 0.00070049
0.00068798 0.00068798 0.00068798
0.00067569 0.00067569 0.00067569
0.00066362 0.00066362 0.00066362
0.00065176 0.00065176 0.00065176
0.00064012 0.00064012 0.00064012
0.00062869 0.00062869 0.00062869
0.00061746 0.00061746 0.00061746
0.00060643 0.00060643 0.00060643
0.0005956 0.0005956 0.0005956
0.00058496 0.00058496 0.00058496
0.00057451 0.00057451 0.00057451
0.00056424 0.00056424 0.00056424
0.00055417 0.00055417 0.00055417
0.00054427 0.00054427 0.00054427
0.00053455 0.00053455 0.00053455
0.000525 0.000525 0.000525
0.00051562 0.00051562 0.00051562
0.00050641 0.00050641 0.00050641
0.00049736 0.00049736 0.00049736
0.00048848 0.00048848 0.00048848
0.00047975 0.00047975 0.00047975
0.00047118 0.00047118 0.00047118
0.00046277 0.00046277 0.00046277
0.0004545 0.0004545 0.0004545
0.00044638 0.00044638 0.00044638
0.00043841 0.00043841 0.00043841
0.00043058 0.00043058 0.00043058
0.00042289 0.00042289 0.00042289
0.00041533 0.00041533 0.00041533
0.00040791 0.00040791 0.00040791
0.00040063 0.00040063 0.00040063
0.00039347 0.00039347 0.00039347
0.00038644 0.00038644 0.00038644
0.00037954 0.00037954 0.00037954
0.00037276 0.00037276 0.00037276
0.0003661 0.0003661 0.0003661
0.00035956 0.00035956 0.00035956
0.00035314 0.00035314 0.00035314
0.00034683 0.00034683 0.00034683
0.00034064 0.00034064 0.00034064
0.00033455 0.00033455 0.00033455
0.00032857 0.00032857 0.00032857
0.00032271 0.00032271 0.00032271
0.00031694 0.00031694 0.00031694
0.00031128 0.00031128 0.00031128
0.00030572 0.00030572 0.00030572
0.00030026 0.00030026 0.00030026
0.00029489 0.00029489 0.00029489
0.00028963 0.00028963 0.00028963
0.00028445 0.00028445 0.00028445
0.00027937 0.00027937 0.00027937
0.00027438 0.00027438 0.00027438
0.00026948 0.00026948 0.00026948
0.00026467 0.00026467 0.00026467
0.00025994 0.00025994 0.00025994
0.0002553 0.0002553 0.0002553
0.00025074 0.00025074 0.00025074
0.00024626 0.00024626 0.00024626
0.00024186 0.00024186 0.00024186
0.00023754 0.00023754 0.00023754
0.0002333 0.0002333 0.0002333
0.00022913 0.00022913 0.00022913
0.00022504 0.00022504 0.00022504
0.00022102 0.00022102 0.00022102
0.00021707 0.00021707 0.00021707
0.00021319 0.00021319 0.00021319
0.00020938 0.00020938 0.00020938
0.00020564 0.00020564 0.00020564
0.00020197 0.00020197 0.00020197
0.00019836 0.00019836 0.00019836
0.00019482 0.00019482 0.00019482
0.00019134 0.00019134 0.00019134
0.00018792 0.00018792 0.00018792
0.00018456 0.00018456 0.00018456
0.00018127 0.00018127 0.00018127
0.00017803 0.00017803 0.00017803
0.00017485 0.00017485 0.00017485
0.00017173 0.00017173 0.00017173
0.00016866 0.00016866 0.00016866
0.00016564 0.00016564 0.00016564
0.00016269 0.00016269 0.00016269
0.00015978 0.00015978 0.00015978
0.00015693 0.00015693 0.00015693
0.00015412 0.00015412 0.00015412
0.00015137 0.00015137 0.00015137
0.00014867 0.00014867 0.00014867
0.00014601 0.00014601 0.00014601
0.0001434 0.0001434 0.0001434
0.00014084 0.00014084 0.00014084
0.00013832 0.00013832 0.00013832
0.00013585 0.00013585 0.00013585
0.00013343 0.00013343 0.00013343
0.00013104 0.00013104 0.00013104
0.0001287 0.0001287 0.0001287
0.0001264 0.0001264 0.0001264
0.00012415 0.00012415 0.00012415
0.00012193 0.00012193 0.00012193
0.00011975 0.00011975 0.00011975
0.00011761 0.00011761 0.00011761
0.00011551 0.00011551 0.00011551
0.00011345 0.00011345 0.00011345
0.00011142 0.00011142 0.00011142
0.00010943 0.00010943 0.00010943
0.00010748 0.00010748 0.00010748
0.00010556 0.00010556 0.00010556
0.00010367 0.00010367 0.00010367
0.00010182 0.00010182 0.00010182
0.0001 0.0001 0.0001
