luts/inverse_01.cube
LUT_1D_SIZE 1024
10.23 10.23 10.23
10.23 10.23 10.23
5.115 5.115 5.115
3.41 3.41 3.41
2.5575 2.5575 2.5575
2.046 2.046 2.046
1.705 1.705 1.705
1.46142857 1.46142857 1.46142857
1.27875 1.27875 1.27875
1.13666667 1.13666667 1.13666667
1.023 1.023 1.023
0.93 0.93 0.93
0.8525 0.8525 0.8525
0.78692308 0.78692308 0.78692308
0.73071429 0.73071429 0.73071429
0.682 0.682 0.682
0.639375 0.639375 0.639375
0.60176471 0.60176471 0.60176471
0.56833333 0.56833333 0.56833333
0.53842105 0.53842105 0.53842105
0.5115 0.5115 0.5115
0.48714286 0.48714286 0.48714286
0.465 0.465 0.465
0.44478261 0.44478261 0.44478261
0.42625 0.42625 0.42625
0.4092 0.4092 0.4092
0.39346154 0.39346154 0.39346154
0.37888889 0.37888889 0.37888889
0.36535714 0.36535714 0.36535714
0.35275862 0.35275862 0.35275862
0.341 0.341 0.341
0.33 0.33 0.33
0.3196875 0.3196875 0.3196875
0.31 0.31 0.31
0.30088235 0.30088235 0.30088235
0.29228571 0.29228571 0.29228571
0.28416667 0.28416667 0.28416667
0.27648649 0.27648649 0.27648649
0.26921053 0.26921053 0.26921053
0.26230769 0.26230769 0.26230769
0.25575 0.25575 0.25575
0.2495122 0.2495122 0.2495122
0.24357143 0.24357143 0.24357143
0.23790698 0.23790698 0.23790698
0.2325 0.2325 0.2325
0.22733333 0.22733333 0.22733333
0.2223913 0.2223913 0.2223913
0.21765957 0.21765957 0.21765957
0.213125 0.213125 0.213125
0.20877551 0.20877551 0.20877551
0.2046 0.2046 0.2046
0.20058824 0.20058824 0.20058824
0.19673077 0.19673077 0.19673077
0.19301887 0.19301887 0.19301887
0.18944444 0.18944444 0.18944444
0.186 0.186 0.186
0.18267857 0.18267857 0.18267857
0.17947368 0.17947368 0.17947368
0.17637931 0.17637931 0.17637931
0.17338983 0.17338983 0.17338983
0.1705 0.1705 0.1705
0.16770492 0.16770492 0.16770492
0.165 0.165 0.165
0.16238095 0.16238095 0.16238095
0.15984375 0.15984375 0.15984375
0.15738462 0.15738462 0.15738462
0.155 0.155 0.155
0.15268657 0.15268657 0.15268657
0.15044118 0.15044118 0.15044118
0.14826087 0.14826087 0.14826087
0.14614286 0.14614286 0.14614286
0.14408451 0.14408451 0.14408451
0.14208333 0.14208333 0.14208333
0.14013699 0.14013699 0.14013699
0.13824324 0.13824324 0.13824324
0.1364 0.1364 0.1364
0.13460526 0.13460526 0.13460526
0.13285714 0.13285714 0.13285714
0.13115385 0.13115385 0.13115385
0.12949367 0.12949367 0.12949367
0.127875 0.127875 0.127875
0.1262963 0.1262963 0.1262963
0.1247561 0.1247561 0.1247561
0.12325301 0.12325301 0.12325301
0.12178571 0.12178571 0.12178571
0.12035294 0.12035294 0.12035294
0.11895349 0.11895349 0.11895349
0.11758621 0.11758621 0.11758621
0.11625 0.11625 0.11625
0.11494382 0.11494382 0.11494382
0.11366667 0.11366667 0.11366667
0.11241758 0.11241758 0.11241758
0.11119565 0.11119565 0.11119565
0.11 0.11 0.11
0.10882979 0.10882979 0.10882979
0.10768421 0.10768421 0.10768421
0.1065625 0.1065625 0.1065625
0.10546392 0.10546392 0.10546392
0.10438776 0.10438776 0.10438776
0.10333333 0.10333333 0.10333333
0.1023 0.1023 0.1023
0.10128713 0.10128713 0.10128713
0.10029412 0.10029412 0.10029412
0.09932039 0.09932039 0.09932039
0.09836538 0.09836538 0.09836538
0.09742857 0.09742857 0.09742857
0.09650943 0.09650943 0.09650943
0.09560748 0.09560748 0.09560748
0.09472222 0.09472222 0.09472222
0.09385321 0.09385321 0.09385321
0.093 0.093 0.093
0.09216216 0.09216216 0.09216216
0.09133929 0.09133929 0.09133929
0.09053097 0.09053097 0.09053097
0.08973684 0.08973684 0.08973684
0.08895652 0.08895652 0.08895652
0.08818966 0.08818966 0.08818966
0.0874359 0.0874359 0.0874359
0.08669492 0.08669492 0.08669492
0.08596639 0.08596639 0.08596639
0.08525 0.08525 0.08525
0.08454545 0.08454545 0.08454545
0.08385246 0.08385246 0.08385246
0.08317073 0.08317073 0.08317073
0.0825 0.0825 0.0825
0.08184 0.08184 0.08184
0.08119048 0.08119048 0.08119048
0.08055118 0.08055118 0.08055118
0.07992188 0.07992188 0.07992188
0.07930233 0.07930233 0.07930233
0.07869231 0.07869231 0.07869231
0.0780916 0.0780916 0.0780916
0.0775 0.0775 0.0775
0.07691729 0.07691729 0.07691729
0.07634328 0.07634328 0.07634328
0.07577778 0.07577778 0.07577778
0.07522059 0.07522059 0.07522059
0.07467153 0.07467153 0.07467153
0.07413043 0.07413043 0.07413043
0.07359712 0.07359712 0.07359712
0.07307143 0.07307143 0.07307143
0.07255319 0.07255319 0.07255319
0.07204225 0.07204225 0.07204225
0.07153846 0.07153846 0.07153846
0.07104167 0.07104167 0.07104167
0.07055172 0.07055172 0.07055172
0.07006849 0.07006849 0.07006849
0.06959184 0.06959184 0.06959184
0.06912162 0.06912162 0.06912162
0.06865772 0.06865772 0.06865772
0.0682 0.0682 0.0682
0.06774834 0.06774834 0.06774834
0.06730263 0.06730263 0.06730263
0.06686275 0.06686275 0.06686275
0.06642857 0.06642857 0.06642857
0.066 0.066 0.066
0.06557692 0.06557692 0.06557692
0.06515924 0.06515924 0.06515924
0.06474684 0.06474684 0.06474684
0.06433962 0.06433962 0.06433962
0.0639375 0.0639375 0.0639375
0.06354037 0.06354037 0.06354037
0.06314815 0.06314815 0.06314815
0.06276074 0.06276074 0.06276074
0.06237805 0.06237805 0.06237805
0.062 0.062 0.062
0.06162651 0.06162651 0.06162651
0.06125749 0.06125749 0.06125749
0.06089286 0.06089286 0.06089286
0.06053254 0.06053254 0.06053254
0.06017647 0.06017647 0.06017647
0.05982456 0.05982456 0.05982456
0.05947674 0.05947674 0.05947674
0.05913295 0.05913295 0.05913295
0.0587931 0.0587931 0.0587931
0.05845714 0.05845714 0.05845714
0.058125 0.058125 0.058125
0.05779661 0.05779661 0.05779661
0.05747191 0.05747191 0.05747191
0.05715084 0.05715084 0.05715084
0.05683333 0.05683333 0.05683333
0.05651934 0.05651934 0.05651934
0.05620879 0.05620879 0.05620879
0.05590164 0.05590164 0.05590164
0.05559783 0.05559783 0.05559783
0.0552973 0.0552973 0.0552973
0.055 0.055 0.055
0.05470588 0.05470588 0.05470588
0.05441489 0.05441489 0.05441489
0.05412698 0.05412698 0.05412698
0.05384211 0.05384211 0.05384211
0.05356021 0.05356021 0.05356021
0.05328125 0.05328125 0.05328125
0.05300518 0.05300518 0.05300518
0.05273196 0.05273196 0.05273196
0.05246154 0.05246154 0.05246154
0.05219388 0.05219388 0.05219388
0.05192893 0.05192893 0.05192893
0.05166667 0.05166667 0.05166667
0.05140704 0.05140704 0.05140704
0.05115 0.05115 0.05115
0.05089552 0.05089552 0.05089552
0.05064356 0.05064356 0.05064356
0.05039409 0.05039409 0.05039409
0.05014706 0.05014706 0.05014706
0.04990244 0.04990244 0.04990244
0.04966019 0.04966019 0.04966019
0.04942029 0.04942029 0.04942029
0.04918269 0.04918269 0.04918269
0.04894737 0.04894737 0.04894737
0.04871429 0.04871429 0.04871429
0.04848341 0.04848341 0.04848341
0.04825472 0.04825472 0.04825472
0.04802817 0.04802817 0.04802817
0.04780374 0.04780374 0.04780374
0.0475814 0.0475814 0.0475814
0.04736111 0.04736111 0.04736111
0.04714286 0.04714286 0.04714286
0.04692661 0.04692661 0.04692661
0.04671233 0.04671233 0.04671233
0.0465 0.0465 0.0465
0.04628959 0.04628959 0.04628959
0.04608108 0.04608108 0.04608108
0.04587444 0.04587444 0.04587444
0.04566964 0.04566964 0.04566964
0.04546667 0.04546667 0.04546667
0.04526549 0.04526549 0.04526549
0.04506608 0.04506608 0.04506608
0.04486842 0.04486842 0.04486842
0.04467249 0.04467249 0.04467249
0.04447826 0.04447826 0.04447826
0.04428571 0.04428571 0.04428571
0.04409483 0.04409483 0.04409483
0.04390558 0.04390558 0.04390558
0.04371795 0.04371795 0.04371795
0.04353191 0.04353191 0.04353191
0.04334746 0.04334746 0.04334746
0.04316456 0.04316456 0.04316456
0.04298319 0.04298319 0.04298319
0.04280335 0.04280335 0.04280335
0.042625 0.042625 0.042625
0.04244813 0.04244813 0.04244813
0.04227273 0.04227273 0.04227273
0.04209877 0.04209877 0.04209877
0.04192623 0.04192623 0.04192623
0.0417551 0.0417551 0.0417551
0.04158537 0.04158537 0.04158537
0.041417 0.041417 0.041417
0.04125 0.04125 0.04125
0.04108434 0.04108434 0.04108434
0.04092 0.04092 0.04092
0.04075697 0.04075697 0.04075697
0.04059524 0.04059524 0.04059524
0.04043478 0.04043478 0.04043478
0.04027559 0.04027559 0.04027559
0.04011765 0.04011765 0.04011765
0.03996094 0.03996094 0.03996094
0.03980545 0.03980545 0.03980545
0.03965116 0.03965116 0.03965116
0.03949807 0.03949807 0.03949807
0.03934615 0.03934615 0.03934615
0.0391954 0.0391954 0.0391954
0.0390458 0.0390458 0.0390458
0.03889734 0.03889734 0.03889734
0.03875 0.03875 0.03875
0.03860377 0.03860377 0.03860377
0.03845865 0.03845865 0.03845865
0.03831461 0.03831461 0.03831461
0.03817164 0.03817164 0.03817164
0.03802974 0.03802974 0.03802974
0.03788889 0.03788889 0.03788889
0.03774908 0.03774908 0.03774908
0.03761029 0.03761029 0.03761029
0.03747253 0.03747253 0.03747253
0.03733577 0.03733577 0.03733577
0.0372 0.0372 0.0372
0.03706522 0.03706522 0.03706522
0.03693141 0.03693141 0.03693141
0.03679856 0.03679856 0.03679856
0.03666667 0.03666667 0.03666667
0.03653571 0.03653571 0.03653571
0.03640569 0.03640569 0.03640569
0.0362766 0.0362766 0.0362766
0.03614841 0.03614841 0.03614841
0.03602113 0.03602113 0.03602113
0.03589474 0.03589474 0.03589474
0.03576923 0.03576923 0.03576923
0.0356446 0.0356446 0.0356446
0.03552083 0.03552083 0.03552083
0.03539792 0.03539792 0.03539792
0.03527586 0.03527586 0.03527586
0.03515464 0.03515464 0.03515464
0.03503425 0.03503425 0.03503425
0.03491468 0.03491468 0.03491468
0.03479592 0.03479592 0.03479592
0.03467797 0.03467797 0.03467797
0.03456081 0.03456081 0.03456081
0.03444444 0.03444444 0.03444444
0.03432886 0.03432886 0.03432886
0.03421405 0.03421405 0.03421405
0.0341 0.0341 0.0341
0.03398671 0.03398671 0.03398671
0.03387417 0.03387417 0.03387417
0.03376238 0.03376238 0.03376238
0.03365132 0.03365132 0.03365132
0.03354098 0.03354098 0.03354098
0.03343137 0.03343137 0.03343137
0.03332248 0.03332248 0.03332248
0.03321429 0.03321429 0.03321429
0.0331068 0.0331068 0.0331068
0.033 0.033 0.033
0.03289389 0.03289389 0.03289389
0.03278846 0.03278846 0.03278846
0.03268371 0.03268371 0.03268371
0.03257962 0.03257962 0.03257962
0.03247619 0.03247619 0.03247619
0.03237342 0.03237342 0.03237342
0.03227129 0.03227129 0.03227129
0.03216981 0.03216981 0.03216981
0.03206897 0.03206897 0.03206897
0.03196875 0.03196875 0.03196875
0.03186916 0.03186916 0.03186916
0.03177019 0.03177019 0.03177019
0.03167183 0.03167183 0.03167183
0.03157407 0.03157407 0.03157407
0.03147692 0.03147692 0.03147692
0.03138037 0.03138037 0.03138037
0.0312844 0.0312844 0.0312844
0.03118902 0.03118902 0.03118902
0.03109422 0.03109422 0.03109422
0.031 0.031 0.031
0.03090634 0.03090634 0.03090634
0.03081325 0.03081325 0.03081325
0.03072072 0.03072072 0.03072072
0.03062874 0.03062874 0.03062874
0.03053731 0.03053731 0.03053731
0.03044643 0.03044643 0.03044643
0.03035608 0.03035608 0.03035608
0.03026627 0.03026627 0.03026627
0.03017699 0.03017699 0.03017699
0.03008824 0.03008824 0.03008824
0.03 0.03 0.03
0.02991228 0.02991228 0.02991228
0.02982507 0.02982507 0.02982507
0.02973837 0.02973837 0.02973837
0.02965217 0.02965217 0.02965217
0.02956647 0.02956647 0.02956647
0.02948127 0.02948127 0.02948127
0.02939655 0.02939655 0.02939655
0.02931232 0.02931232 0.02931232
0.02922857 0.02922857 0.02922857
0.0291453 0.0291453 0.0291453
0.0290625 0.0290625 0.0290625
0.02898017 0.02898017 0.02898017
0.02889831 0.02889831 0.02889831
0.0288169 0.0288169 0.0288169
0.02873596 0.02873596 0.02873596
0.02865546 0.02865546 0.02865546
0.02857542 0.02857542 0.02857542
0.02849582 0.02849582 0.02849582
0.02841667 0.02841667 0.02841667
0.02833795 0.02833795 0.02833795
0.02825967 0.02825967 0.02825967
0.02818182 0.02818182 0.02818182
0.0281044 0.0281044 0.0281044
0.0280274 0.0280274 0.0280274
0.02795082 0.02795082 0.02795082
0.02787466 0.02787466 0.02787466
0.02779891 0.02779891 0.02779891
0.02772358 0.02772358 0.02772358
0.02764865 0.02764865 0.02764865
0.02757412 0.02757412 0.02757412
0.0275 0.0275 0.0275
0.02742627 0.02742627 0.02742627
0.02735294 0.02735294 0.02735294
0.02728 0.02728 0.02728
0.02720745 0.02720745 0.02720745
0.02713528 0.02713528 0.02713528
0.02706349 0.02706349 0.02706349
0.02699208 0.02699208 0.02699208
0.02692105 0.02692105 0.02692105
0.02685039 0.02685039 0.02685039
0.0267801 0.0267801 0.0267801
0.02671018 0.02671018 0.02671018
0.02664063 0.02664063 0.02664063
0.02657143 0.02657143 0.02657143
0.02650259 0.02650259 0.02650259
0.02643411 0.02643411 0.02643411
0.02636598 0.02636598 0.02636598
0.0262982 0.0262982 0.0262982
0.02623077 0.02623077 0.02623077
0.02616368 0.02616368 0.02616368
0.02609694 0.02609694 0.02609694
0.02603053 0.02603053 0.02603053
0.02596447 0.02596447 0.02596447
0.02589873 0.02589873 0.02589873
0.02583333 0.02583333 0.02583333
0.02576826 0.02576826 0.02576826
0.02570352 0.02570352 0.02570352
0.0256391 0.0256391 0.0256391
0.025575 0.025575 0.025575
0.02551122 0.02551122 0.02551122
0.02544776 0.02544776 0.02544776
0.02538462 0.02538462 0.02538462
0.02532178 0.02532178 0.02532178
0.02525926 0.02525926 0.02525926
0.02519704 0.02519704 0.02519704
0.02513514 0.02513514 0.02513514
0.02507353 0.02507353 0.02507353
0.02501222 0.02501222 0.02501222
0.02495122 0.02495122 0.02495122
0.02489051 0.02489051 0.02489051
0.0248301 0.0248301 0.0248301
0.02476998 0.02476998 0.02476998
0.02471014 0.02471014 0.02471014
0.0246506 0.0246506 0.0246506
0.02459135 0.02459135 0.02459135
0.02453237 0.02453237 0.02453237
0.02447368 0.02447368 0.02447368
0.02441527 0.02441527 0.02441527
0.02435714 0.02435714 0.02435714
0.02429929 0.02429929 0.02429929
0.02424171 0.02424171 0.02424171
0.0241844 0.0241844 0.0241844
0.02412736 0.02412736 0.02412736
0.02407059 0.02407059 0.02407059
0.02401408 0.02401408 0.02401408
0.02395785 0.02395785 0.02395785
0.02390187 0.02390187 0.02390187
0.02384615 0.02384615 0.02384615
0.0237907 0.0237907 0.0237907
0.0237355 0.0237355 0.0237355
0.02368056 0.02368056 0.02368056
0.02362587 0.02362587 0.02362587
0.02357143 0.02357143 0.02357143
0.02351724 0.02351724 0.02351724
0.0234633 0.0234633 0.0234633
0.02340961 0.02340961 0.02340961
0.02335616 0.02335616 0.02335616
0.02330296 0.02330296 0.02330296
0.02325 0.02325 0.02325
0.02319728 0.02319728 0.02319728
0.0231448 0.0231448 0.0231448
0.02309255 0.02309255 0.02309255
0.02304054 0.02304054 0.02304054
0.02298876 0.02298876 0.02298876
0.02293722 0.02293722 0.02293722
0.02288591 0.02288591 0.02288591
0.02283482 0.02283482 0.02283482
0.02278396 0.02278396 0.02278396
0.02273333 0.02273333 0.02273333
0.02268293 0.02268293 0.02268293
0.02263274 0.02263274 0.02263274
0.02258278 0.02258278 0.02258278
0.02253304 0.02253304 0.02253304
0.02248352 0.02248352 0.02248352
0.02243421 0.02243421 0.02243421
0.02238512 0.02238512 0.02238512
0.02233624 0.02233624 0.02233624
0.02228758 0.02228758 0.02228758
0.02223913 0.02223913 0.02223913
0.02219089 0.02219089 0.02219089
0.02214286 0.02214286 0.02214286
0.02209503 0.02209503 0.02209503
0.02204741 0.02204741 0.02204741
0.022 0.022 0.022
0.02195279 0.02195279 0.02195279
0.02190578 0.02190578 0.02190578
0.02185897 0.02185897 0.02185897
0.02181237 0.02181237 0.02181237
0.02176596 0.02176596 0.02176596
0.02171975 0.02171975 0.02171975
0.02167373 0.02167373 0.02167373
0.02162791 0.02162791 0.02162791
0.02158228 0.02158228 0.02158228
0.02153684 0.02153684 0.02153684
0.0214916 0.0214916 0.0214916
0.02144654 0.02144654 0.02144654
0.02140167 0.02140167 0.02140167
0.02135699 0.02135699 0.02135699
0.0213125 0.0213125 0.0213125
0.02126819 0.02126819 0.02126819
0.02122407 0.02122407 0.02122407
0.02118012 0.02118012 0.02118012
0.02113636 0.02113636 0.02113636
0.02109278 0.02109278 0.02109278
0.02104938 0.02104938 0.02104938
0.02100616 0.02100616 0.02100616
0.02096311 0.02096311 0.02096311
0.02092025 0.02092025 0.02092025
0.02087755 0.02087755 0.02087755
0.02083503 0.02083503 0.02083503
0.02079268 0.02079268 0.02079268
0.02075051 0.02075051 0.02075051
0.0207085 0.0207085 0.0207085
0.02066667 0.02066667 0.02066667
0.020625 0.020625 0.020625
0.0205835 0.0205835 0.0205835
0.02054217 0.02054217 0.02054217
0.020501 0.020501 0.020501
0.02046 0.02046 0.02046
0.02041916 0.02041916 0.02041916
0.02037849 0.02037849 0.02037849
0.02033797 0.02033797 0.02033797
0.02029762 0.02029762 0.02029762
0.02025743 0.02025743 0.02025743
0.02021739 0.02021739 0.02021739
0.02017751 0.02017751 0.02017751
0.0201378 0.0201378 0.0201378
0.02009823 0.02009823 0.02009823
0.02005882 0.02005882 0.02005882
0.02001957 0.02001957 0.02001957
0.01998047 0.01998047 0.01998047
0.01994152 0.01994152 0.01994152
0.01990272 0.01990272 0.01990272
0.01986408 0.01986408 0.01986408
0.01982558 0.01982558 0.01982558
0.01978723 0.01978723 0.01978723
0.01974903 0.01974903 0.01974903
0.01971098 0.01971098 0.01971098
0.01967308 0.01967308 0.01967308
0.01963532 0.01963532 0.01963532
0.0195977 0.0195977 0.0195977
0.01956023 0.01956023 0.01956023
0.0195229 0.0195229 0.0195229
0.01948571 0.01948571 0.01948571
0.01944867 0.01944867 0.01944867
0.01941176 0.01941176 0.01941176
0.019375 0.019375 0.019375
0.01933837 0.01933837 0.01933837
0.01930189 0.01930189 0.01930189
0.01926554 0.01926554 0.01926554
0.01922932 0.01922932 0.01922932
0.01919325 0.01919325 0.01919325
0.0191573 0.0191573 0.0191573
0.0191215 0.0191215 0.0191215
0.01908582 0.01908582 0.01908582
0.01905028 0.01905028 0.01905028
0.01901487 0.01901487 0.01901487
0.01897959 0.01897959 0.01897959
0.01894444 0.01894444 0.01894444
0.01890943 0.01890943 0.01890943
0.01887454 0.01887454 0.01887454
0.01883978 0.01883978 0.01883978
0.01880515 0.01880515 0.01880515
0.01877064 0.01877064 0.01877064
0.01873626 0.01873626 0.01873626
0.01870201 0.01870201 0.01870201
0.01866788 0.01866788 0.01866788
0.01863388 0.01863388 0.01863388
0.0186 0.0186 0.0186
0.01856624 0.01856624 0.01856624
0.01853261 0.01853261 0.01853261
0.0184991 0.0184991 0.0184991
0.0184657 0.0184657 0.0184657
0.01843243 0.01843243 0.01843243
0.01839928 0.01839928 0.01839928
0.01836625 0.01836625 0.01836625
0.01833333 0.01833333 0.01833333
0.01830054 0.01830054 0.01830054
0.01826786 0.01826786 0.01826786
0.01823529 0.01823529 0.01823529
0.01820285 0.01820285 0.01820285
0.01817052 0.01817052 0.01817052
0.0181383 0.0181383 0.0181383
0.01810619 0.01810619 0.01810619
0.0180742 0.0180742 0.0180742
0.01804233 0.01804233 0.01804233
0.01801056 0.01801056 0.01801056
0.01797891 0.01797891 0.01797891
0.01794737 0.01794737 0.01794737
0.01791594 0.01791594 0.01791594
0.01788462 0.01788462 0.01788462
0.0178534 0.0178534 0.0178534
0.0178223 0.0178223 0.0178223
0.0177913 0.0177913 0.0177913
0.01776042 0.01776042 0.01776042
0.01772964 0.01772964 0.01772964
0.01769896 0.01769896 0.01769896
0.01766839 0.01766839 0.01766839
0.01763793 0.01763793 0.01763793
0.01760757 0.01760757 0.01760757
0.01757732 0.01757732 0.01757732
0.01754717 0.01754717 0.01754717
0.01751712 0.01751712 0.01751712
0.01748718 0.01748718 0.01748718
0.01745734 0.01745734 0.01745734
0.0174276 0.0174276 0.0174276
0.01739796 0.01739796 0.01739796
0.01736842 0.01736842 0.01736842
0.01733898 0.01733898 0.01733898
0.01730964 0.01730964 0.01730964
0.01728041 0.01728041 0.01728041
0.01725126 0.01725126 0.01725126
0.01722222 0.01722222 0.01722222
0.01719328 0.01719328 0.01719328
0.01716443 0.01716443 0.01716443
0.01713568 0.01713568 0.01713568
0.01710702 0.01710702 0.01710702
0.01707846 0.01707846 0.01707846
0.01705 0.01705 0.01705
0.01702163 0.01702163 0.01702163
0.01699336 0.01699336 0.01699336
0.01696517 0.01696517 0.01696517
0.01693709 0.01693709 0.01693709
0.01690909 0.01690909 0.01690909
0.01688119 0.01688119 0.01688119
0.01685338 0.01685338 0.01685338
0.01682566 0.01682566 0.01682566
0.01679803 0.01679803 0.01679803
0.01677049 0.01677049 0.01677049
0.01674304 0.01674304 0.01674304
0.01671569 0.01671569 0.01671569
0.01668842 0.01668842 0.01668842
0.01666124 0.01666124 0.01666124
0.01663415 0.01663415 0.01663415
0.01660714 0.01660714 0.01660714
0.01658023 0.01658023 0.01658023
0.0165534 0.0165534 0.0165534
0.01652666 0.01652666 0.01652666
0.0165 0.0165 0.0165
0.01647343 0.01647343 0.01647343
0.01644695 0.01644695 0.01644695
0.01642055 0.01642055 0.01642055
0.01639423 0.01639423 0.01639423
0.016368 0.016368 0.016368
0.01634185 0.01634185 0.01634185
0.01631579 0.01631579 0.01631579
0.01628981 0.01628981 0.01628981
0.01626391 0.01626391 0.01626391
0.0162381 0.0162381 0.0162381
0.01621236 0.01621236 0.01621236
0.01618671 0.01618671 0.01618671
0.01616114 0.01616114 0.01616114
0.01613565 0.01613565 0.01613565
0.01611024 0.01611024 0.01611024
0.01608491 0.01608491 0.01608491
0.01605965 0.01605965 0.01605965
0.01603448 0.01603448 0.01603448
0.01600939 0.01600939 0.01600939
0.01598437 0.01598437 0.01598437
0.01595944 0.01595944 0.01595944
0.01593458 0.01593458 0.01593458
0.0159098 0.0159098 0.0159098
0.01588509 0.01588509 0.01588509
0.01586047 0.01586047 0.01586047
0.01583591 0.01583591 0.01583591
0.01581144 0.01581144 0.01581144
0.01578704 0.01578704 0.01578704
0.01576271 0.01576271 0.01576271
0.01573846 0.01573846 0.01573846
0.01571429 0.01571429 0.01571429
0.01569018 0.01569018 0.01569018
0.01566616 0.01566616 0.01566616
0.0156422 0.0156422 0.0156422
0.01561832 0.01561832 0.01561832
0.01559451 0.01559451 0.01559451
0.01557078 0.01557078 0.01557078
0.01554711 0.01554711 0.01554711
0.01552352 0.01552352 0.01552352
0.0155 0.0155 0.0155
0.01547655 0.01547655 0.01547655
0.01545317 0.01545317 0.01545317
0.01542986 0.01542986 0.01542986
0.01540663 0.01540663 0.01540663
0.01538346 0.01538346 0.01538346
0.01536036 0.01536036 0.01536036
0.01533733 0.01533733 0.01533733
0.01531437 0.01531437 0.01531437
0.01529148 0.01529148 0.01529148
0.01526866 0.01526866 0.01526866
0.0152459 0.0152459 0.0152459
0.01522321 0.01522321 0.01522321
0.01520059 0.01520059 0.01520059
0.01517804 0.01517804 0.01517804
0.01515556 0.01515556 0.01515556
0.01513314 0.01513314 0.01513314
0.01511078 0.01511078 0.01511078
0.0150885 0.0150885 0.0150885
0.01506627 0.01506627 0.01506627
0.01504412 0.01504412 0.01504412
0.01502203 0.01502203 0.01502203
0.015 0.015 0.015
0.01497804 0.01497804 0.01497804
0.01495614 0.01495614 0.01495614
0.01493431 0.01493431 0.01493431
0.01491254 0.01491254 0.01491254
0.01489083 0.01489083 0.01489083
0.01486919 0.01486919 0.01486919
0.01484761 0.01484761 0.01484761
0.01482609 0.01482609 0.01482609
0.01480463 0.01480463 0.01480463
0.01478324 0.01478324 0.01478324
0.0147619 0.0147619 0.0147619
0.01474063 0.01474063 0.01474063
0.01471942 0.01471942 0.01471942
0.01469828 0.01469828 0.01469828
0.01467719 0.01467719 0.01467719
0.01465616 0.01465616 0.01465616
0.01463519 0.01463519 0.01463519
0.01461429 0.01461429 0.01461429
0.01459344 0.01459344 0.01459344
0.01457265 0.01457265 0.01457265
0.01455192 0.01455192 0.01455192
0.01453125 0.01453125 0.01453125
0.01451064 0.01451064 0.01451064
0.01449008 0.01449008 0.01449008
0.01446959 0.01446959 0.01446959
0.01444915 0.01444915 0.01444915
0.01442877 0.01442877 0.01442877
0.01440845 0.01440845 0.01440845
0.01438819 0.01438819 0.01438819
0.01436798 0.01436798 0.01436798
0.01434783 0.01434783 0.01434783
0.01432773 0.01432773 0.01432773
0.01430769 0.01430769 0.01430769
0.01428771 0.01428771 0.01428771
0.01426778 0.01426778 0.01426778
0.01424791 0.01424791 0.01424791
0.01422809 0.01422809 0.01422809
0.01420833 0.01420833 0.01420833
0.01418863 0.01418863 0.01418863
0.01416898 0.01416898 0.01416898
0.01414938 0.01414938 0.01414938
0.01412983 0.01412983 0.01412983
0.01411034 0.01411034 0.01411034
0.01409091 0.01409091 0.01409091
0.01407153 0.01407153 0.01407153
0.0140522 0.0140522 0.0140522
0.01403292 0.01403292 0.01403292
0.0140137 0.0140137 0.0140137
0.01399453 0.01399453 0.01399453
0.01397541 0.01397541 0.01397541
0.01395634 0.01395634 0.01395634
0.01393733 0.01393733 0.01393733
0.01391837 0.01391837 0.01391837
0.01389946 0.01389946 0.01389946
0.0138806 0.0138806 0.0138806
0.01386179 0.01386179 0.01386179
0.01384303 0.01384303 0.01384303
0.01382432 0.01382432 0.01382432
0.01380567 0.01380567 0.01380567
0.01378706 0.01378706 0.01378706
0.01376851 0.01376851 0.01376851
0.01375 0.01375 0.01375
0.01373154 0.01373154 0.01373154
0.01371314 0.01371314 0.01371314
0.01369478 0.01369478 0.01369478
0.01367647 0.01367647 0.01367647
0.01365821 0.01365821 0.01365821
0.01364 0.01364 0.01364
0.01362184 0.01362184 0.01362184
0.01360372 0.01360372 0.01360372
0.01358566 0.01358566 0.01358566
0.01356764 0.01356764 0.01356764
0.01354967 0.01354967 0.01354967
0.01353175 0.01353175 0.01353175
